;FLAVOR:UltiGCode
;TIME:478
;MATERIAL:960
;MATERIAL2:0
;NOZZLE_DIAMETER:0.4
;Generated with Cura_SteamEngine 3.6.0
M82 ;absolute extrusion mode

G92 E0
G10
;LAYER_COUNT:66
;LAYER:0
M107
G0 F3900 X97.925 Y100.631 Z0.3
;TYPE:SKIRT
G11
G1 F3000 X98.537 Y100.131 E0.09483
G1 X99.196 Y99.696 E0.18959
G1 X99.896 Y99.33 E0.28438
G1 X100.629 Y99.036 E0.37915
G1 X101.388 Y98.818 E0.47391
G1 X102.165 Y98.678 E0.56865
G1 X102.765 Y98.625 E0.64093
G1 X106.908 Y98.416 E1.13873
G1 X107.698 Y98.416 E1.23353
G1 X108.483 Y98.496 E1.32821
G1 X109.257 Y98.655 E1.42303
G1 X110.01 Y98.892 E1.51776
G1 X110.736 Y99.203 E1.61254
G1 X111.155 Y99.435 E1.67001
G1 X111.295 Y99.362 E1.68896
G1 X112.028 Y99.068 E1.78373
G1 X112.787 Y98.85 E1.87849
G1 X113.564 Y98.71 E1.97323
G1 X114.163 Y98.657 E2.0454
G1 X118.923 Y98.416 E2.61733
G1 X119.712 Y98.416 E2.71201
G1 X120.498 Y98.496 E2.80681
G1 X121.271 Y98.655 E2.90152
G1 X122.025 Y98.891 E2.99633
G1 X122.751 Y99.202 E3.0911
G1 X123.441 Y99.586 E3.18586
G1 X124.089 Y100.036 E3.28053
G1 X124.543 Y100.415 E3.3515
G1 X124.666 Y100.526 E3.37138
G1 X125.224 Y101.084 E3.46608
G1 X125.724 Y101.696 E3.56091
G1 X126.159 Y102.355 E3.65567
G1 X126.525 Y103.055 E3.75046
G1 X126.819 Y103.788 E3.84523
G1 X127.037 Y104.547 E3.93999
G1 X127.177 Y105.324 E4.03473
G1 X127.23 Y105.922 E4.10677
G1 X127.724 Y115.675 E5.27863
G1 X127.724 Y116.465 E5.37343
G1 X127.644 Y117.251 E5.46824
G1 X127.485 Y118.024 E5.56294
G1 X127.249 Y118.778 E5.65775
G1 X126.938 Y119.504 E5.75253
G1 X126.555 Y120.194 E5.84723
G1 X126.104 Y120.842 E5.94197
G1 X125.725 Y121.296 E6.01294
G1 X125.614 Y121.419 E6.03282
G1 X125.056 Y121.977 E6.12751
G1 X124.444 Y122.477 E6.22235
G1 X123.785 Y122.912 E6.3171
G1 X123.085 Y123.278 E6.41189
G1 X122.352 Y123.572 E6.50666
G1 X121.593 Y123.79 E6.60142
G1 X120.816 Y123.93 E6.69617
G1 X120.217 Y123.983 E6.76833
G1 X115.457 Y124.224 E7.34026
G1 X114.668 Y124.224 E7.43494
G1 X113.882 Y124.144 E7.52975
G1 X113.109 Y123.985 E7.62445
G1 X112.355 Y123.749 E7.71926
G1 X112.179 Y123.674 E7.74221
G1 X111.82 Y123.911 E7.79383
G1 X111.12 Y124.277 E7.88862
G1 X110.387 Y124.571 E7.9834
G1 X109.628 Y124.789 E8.07816
G1 X108.851 Y124.929 E8.1729
G1 X108.251 Y124.982 E8.24518
G1 X104.107 Y125.191 E8.74309
G1 X103.317 Y125.191 E8.83789
G1 X102.532 Y125.111 E8.93258
G1 X101.758 Y124.952 E9.0274
G1 X101.005 Y124.715 E9.12213
G1 X100.279 Y124.404 E9.21691
G1 X99.588 Y124.021 E9.31171
G1 X98.94 Y123.57 E9.40645
G1 X98.488 Y123.192 E9.47716
G1 X98.365 Y123.081 E9.49704
G1 X97.807 Y122.523 E9.59174
G1 X97.307 Y121.911 E9.68657
G1 X96.872 Y121.252 E9.78132
G1 X96.506 Y120.552 E9.87611
G1 X96.212 Y119.819 E9.97088
G1 X95.994 Y119.06 E10.06565
G1 X95.854 Y118.283 E10.16039
G1 X95.801 Y117.684 E10.23255
G1 X95.257 Y106.932 E11.52444
G1 X95.257 Y106.142 E11.61924
G1 X95.337 Y105.357 E11.71393
G1 X95.496 Y104.583 E11.80875
G1 X95.732 Y103.83 E11.90344
G1 X96.044 Y103.104 E11.99827
G1 X96.427 Y102.414 E12.09297
G1 X96.878 Y101.765 E12.1878
G1 X97.256 Y101.312 E12.2586
G1 X97.367 Y101.189 E12.27848
G1 X97.925 Y100.631 E12.37318
G0 F3900 X98.209 Y100.914
G1 F3000 X98.806 Y100.43 E12.46541
G1 X99.451 Y100.01 E12.55777
G1 X100.136 Y99.66 E12.65008
G1 X100.853 Y99.383 E12.74231
G1 X101.596 Y99.182 E12.83468
G1 X102.355 Y99.059 E12.92695
G1 X102.785 Y99.024 E12.97872
G1 X106.928 Y98.815 E13.47651
G1 X107.697 Y98.817 E13.56879
G1 X108.462 Y98.898 E13.6611
G1 X109.215 Y99.058 E13.75348
G1 X109.946 Y99.295 E13.8457
G1 X110.649 Y99.607 E13.93799
G1 X111.145 Y99.892 E14.00664
G1 X111.535 Y99.692 E14.05923
G1 X112.252 Y99.415 E14.15147
G1 X112.995 Y99.214 E14.24384
G1 X113.754 Y99.091 E14.3361
G1 X114.183 Y99.056 E14.38775
G1 X118.943 Y98.815 E14.95969
G1 X119.712 Y98.817 E15.05197
G1 X120.477 Y98.897 E15.14427
G1 X121.229 Y99.057 E15.23653
G1 X121.961 Y99.294 E15.32886
G1 X122.664 Y99.606 E15.42115
G1 X123.331 Y99.989 E15.51345
G1 X123.955 Y100.44 E15.60584
G1 X124.275 Y100.712 E15.65624
G1 X124.398 Y100.823 E15.67612
G1 X124.941 Y101.368 E15.76844
G1 X125.425 Y101.965 E15.86066
G1 X125.845 Y102.61 E15.95303
G1 X126.195 Y103.295 E16.04534
G1 X126.472 Y104.012 E16.13757
G1 X126.673 Y104.755 E16.22994
G1 X126.796 Y105.514 E16.32221
G1 X126.831 Y105.943 E16.37386
G1 X127.325 Y115.696 E17.54572
G1 X127.323 Y116.465 E17.638
G1 X127.243 Y117.23 E17.7303
G1 X127.083 Y117.982 E17.82256
G1 X126.846 Y118.714 E17.91489
G1 X126.534 Y119.417 E18.00718
G1 X126.151 Y120.084 E18.09948
G1 X125.701 Y120.708 E18.1918
G1 X125.428 Y121.028 E18.24228
G1 X125.317 Y121.151 E18.26216
G1 X124.772 Y121.694 E18.35448
G1 X124.175 Y122.178 E18.4467
G1 X123.53 Y122.598 E18.53907
G1 X122.845 Y122.948 E18.63137
G1 X122.128 Y123.225 E18.72361
G1 X121.385 Y123.426 E18.81598
G1 X120.626 Y123.549 E18.90824
G1 X120.197 Y123.584 E18.9599
G1 X115.437 Y123.825 E19.53183
G1 X114.668 Y123.823 E19.62411
G1 X113.903 Y123.743 E19.71641
G1 X113.151 Y123.583 E19.80867
G1 X112.419 Y123.346 E19.901
G1 X112.14 Y123.222 E19.93764
G1 X111.565 Y123.597 E20.02001
G1 X110.88 Y123.947 E20.11232
G1 X110.163 Y124.224 E20.20456
G1 X109.42 Y124.425 E20.29692
G1 X108.661 Y124.548 E20.38919
G1 X108.231 Y124.583 E20.44096
G1 X104.087 Y124.792 E20.93887
G1 X103.318 Y124.79 E21.03115
G1 X102.553 Y124.709 E21.12347
G1 X101.8 Y124.549 E21.21585
G1 X101.069 Y124.312 E21.30806
G1 X100.366 Y124 E21.40036
G1 X99.699 Y123.617 E21.49265
G1 X99.075 Y123.167 E21.58497
G1 X98.756 Y122.895 E21.63528
G1 X98.633 Y122.784 E21.65516
G1 X98.09 Y122.239 E21.74748
G1 X97.606 Y121.642 E21.83971
G1 X97.186 Y120.997 E21.93207
G1 X96.836 Y120.312 E22.02438
G1 X96.559 Y119.595 E22.11661
G1 X96.358 Y118.852 E22.20898
G1 X96.235 Y118.093 E22.30125
G1 X96.2 Y117.664 E22.3529
G1 X95.656 Y106.912 E23.64479
G1 X95.658 Y106.143 E23.73707
G1 X95.739 Y105.378 E23.82938
G1 X95.898 Y104.626 E23.92162
G1 X96.136 Y103.894 E24.01398
G1 X96.447 Y103.191 E24.10623
G1 X96.83 Y102.524 E24.19853
G1 X97.281 Y101.9 E24.29092
G1 X97.553 Y101.58 E24.34132
G1 X97.664 Y101.457 E24.3612
G1 X98.209 Y100.914 E24.45352
G0 F3900 X98.491 Y101.197
G1 F3000 X99.075 Y100.729 E24.54332
G1 X99.705 Y100.326 E24.63307
G1 X100.374 Y99.992 E24.7228
G1 X101.076 Y99.732 E24.81263
G1 X101.801 Y99.548 E24.90239
G1 X102.805 Y99.424 E25.02378
G1 X106.948 Y99.215 E25.52157
G1 X107.696 Y99.217 E25.61134
G1 X108.44 Y99.299 E25.70116
G1 X109.17 Y99.46 E25.79086
G1 X109.88 Y99.698 E25.88072
G1 X110.559 Y100.011 E25.97044
G1 X111.124 Y100.348 E26.04939
G1 X111.773 Y100.024 E26.13643
G1 X112.475 Y99.764 E26.22626
G1 X113.2 Y99.58 E26.31602
G1 X114.203 Y99.456 E26.4373
G1 X118.963 Y99.215 E27.00923
G1 X119.711 Y99.217 E27.09899
G1 X120.455 Y99.299 E27.18881
G1 X121.185 Y99.46 E27.27852
G1 X121.894 Y99.698 E27.36826
G1 X122.574 Y100.01 E27.45804
G1 X123.217 Y100.393 E27.54785
G1 X124.007 Y101.009 E27.66806
G1 X124.13 Y101.12 E27.68795
G1 X124.658 Y101.65 E27.77772
G1 X125.126 Y102.234 E27.86753
G1 X125.529 Y102.864 E27.95727
G1 X125.863 Y103.533 E28.047
G1 X126.123 Y104.235 E28.13683
G1 X126.307 Y104.96 E28.22659
G1 X126.431 Y105.963 E28.34787
G1 X126.925 Y115.716 E29.51973
G1 X126.923 Y116.464 E29.60949
G1 X126.841 Y117.208 E29.69931
G1 X126.68 Y117.938 E29.78901
G1 X126.442 Y118.647 E29.87876
G1 X126.13 Y119.327 E29.96854
G1 X125.747 Y119.97 E30.05835
G1 X125.131 Y120.76 E30.17856
G1 X125.02 Y120.883 E30.19844
G1 X124.49 Y121.411 E30.28822
G1 X123.906 Y121.879 E30.37802
G1 X123.276 Y122.282 E30.46777
G1 X122.607 Y122.616 E30.5575
G1 X121.905 Y122.876 E30.64733
G1 X121.18 Y123.06 E30.73709
G1 X120.177 Y123.184 E30.85836
G1 X115.417 Y123.425 E31.4303
G1 X114.669 Y123.423 E31.52006
G1 X113.925 Y123.341 E31.60988
G1 X113.195 Y123.18 E31.69958
G1 X112.486 Y122.942 E31.78933
G1 X112.089 Y122.76 E31.84174
G1 X111.941 Y122.878 E31.86445
G1 X111.311 Y123.281 E31.95419
G1 X110.642 Y123.615 E32.04392
G1 X109.94 Y123.875 E32.13375
G1 X109.215 Y124.059 E32.22351
G1 X108.211 Y124.183 E32.34491
G1 X104.067 Y124.392 E32.84282
G1 X103.319 Y124.39 E32.93258
G1 X102.575 Y124.308 E33.0224
G1 X101.844 Y124.147 E33.11222
G1 X101.135 Y123.909 E33.20197
G1 X100.456 Y123.596 E33.29169
G1 X99.813 Y123.213 E33.3815
G1 X99.024 Y122.598 E33.50155
G1 X98.901 Y122.487 E33.52143
G1 X98.373 Y121.957 E33.6112
G1 X97.905 Y121.373 E33.70101
G1 X97.502 Y120.743 E33.79075
G1 X97.168 Y120.074 E33.88048
G1 X96.908 Y119.372 E33.97031
G1 X96.724 Y118.647 E34.06007
G1 X96.6 Y117.644 E34.18135
G1 X96.056 Y106.892 E35.47324
G1 X96.058 Y106.144 E35.563
G1 X96.14 Y105.4 E35.65282
G1 X96.301 Y104.67 E35.74252
G1 X96.539 Y103.96 E35.83238
G1 X96.851 Y103.281 E35.92205
G1 X97.234 Y102.638 E36.01186
G1 X97.85 Y101.848 E36.13208
G1 X97.961 Y101.725 E36.15196
G1 X98.491 Y101.197 E36.24173
G0 F3900 X98.774 Y101.482
G1 F3000 X99.342 Y101.03 E36.32884
G1 X99.957 Y100.643 E36.41604
G1 X100.611 Y100.326 E36.50325
G1 X101.295 Y100.083 E36.59036
G1 X102.003 Y99.917 E36.67762
G1 X102.825 Y99.823 E36.7769
G1 X106.968 Y99.614 E37.2747
G1 X107.695 Y99.618 E37.36194
G1 X108.416 Y99.701 E37.44903
G1 X109.124 Y99.863 E37.53618
G1 X109.81 Y100.102 E37.62336
G1 X110.466 Y100.414 E37.71053
G1 X111.083 Y100.797 E37.79767
G1 X111.118 Y100.825 E37.80305
G1 X111.356 Y100.675 E37.83681
G1 X112.01 Y100.358 E37.92402
G1 X112.694 Y100.115 E38.01113
G1 X113.402 Y99.949 E38.09839
G1 X114.223 Y99.855 E38.19756
G1 X118.983 Y99.614 E38.76949
G1 X119.71 Y99.618 E38.85673
G1 X120.431 Y99.701 E38.94382
G1 X121.139 Y99.863 E39.03098
G1 X121.825 Y100.101 E39.11811
G1 X122.481 Y100.414 E39.20533
G1 X123.098 Y100.797 E39.29248
G1 X123.739 Y101.306 E39.3907
G1 X123.862 Y101.417 E39.41058
G1 X124.373 Y101.933 E39.49772
G1 X124.825 Y102.501 E39.58483
G1 X125.212 Y103.116 E39.67203
G1 X125.529 Y103.77 E39.75924
G1 X125.772 Y104.454 E39.84635
G1 X125.938 Y105.162 E39.93361
G1 X126.032 Y105.983 E40.03277
G1 X126.526 Y115.736 E41.20463
G1 X126.522 Y116.462 E41.29176
G1 X126.439 Y117.184 E41.37897
G1 X126.277 Y117.892 E41.46612
G1 X126.039 Y118.578 E41.55326
G1 X125.726 Y119.234 E41.64048
G1 X125.343 Y119.851 E41.72762
G1 X124.834 Y120.492 E41.82584
G1 X124.723 Y120.615 E41.84573
G1 X124.207 Y121.126 E41.93287
G1 X123.639 Y121.578 E42.01998
G1 X123.024 Y121.965 E42.10717
G1 X122.37 Y122.282 E42.19439
G1 X121.686 Y122.525 E42.28149
G1 X120.978 Y122.691 E42.36876
G1 X120.157 Y122.785 E42.46792
G1 X115.397 Y123.026 E43.03985
G1 X114.67 Y123.022 E43.12709
G1 X113.949 Y122.939 E43.21419
G1 X113.241 Y122.777 E43.30134
G1 X112.555 Y122.539 E43.38847
G1 X112.034 Y122.29 E43.45777
G1 X111.674 Y122.577 E43.51302
G1 X111.059 Y122.964 E43.60021
G1 X110.405 Y123.281 E43.68742
G1 X109.721 Y123.524 E43.77453
G1 X109.013 Y123.69 E43.86179
G1 X108.19 Y123.784 E43.9612
G1 X104.046 Y123.993 E44.45911
G1 X103.32 Y123.989 E44.54623
G1 X102.599 Y123.906 E44.63332
G1 X101.89 Y123.744 E44.72059
G1 X101.204 Y123.505 E44.80777
G1 X100.549 Y123.193 E44.89483
G1 X99.932 Y122.81 E44.98197
G1 X99.292 Y122.301 E45.0801
G1 X99.169 Y122.19 E45.09998
G1 X98.658 Y121.674 E45.18713
G1 X98.206 Y121.106 E45.27424
G1 X97.819 Y120.491 E45.36143
G1 X97.502 Y119.837 E45.44864
G1 X97.259 Y119.153 E45.53575
G1 X97.093 Y118.445 E45.62301
G1 X96.999 Y117.624 E45.72218
G1 X96.455 Y106.872 E47.01407
G1 X96.459 Y106.145 E47.10131
G1 X96.542 Y105.424 E47.1884
G1 X96.704 Y104.715 E47.27567
G1 X96.942 Y104.029 E47.36281
G1 X97.255 Y103.374 E47.44992
G1 X97.638 Y102.756 E47.53717
G1 X98.147 Y102.116 E47.6353
G1 X98.258 Y101.993 E47.65518
G1 X98.774 Y101.482 E47.74232
G0 F3900 X99.056 Y101.766
G1 F3000 X99.609 Y101.331 E47.82675
G1 X100.208 Y100.962 E47.91118
G1 X100.846 Y100.662 E47.99578
G1 X101.513 Y100.437 E48.08025
G1 X102.201 Y100.289 E48.1647
G1 X102.846 Y100.223 E48.2425
G1 X106.989 Y100.014 E48.74029
G1 X107.693 Y100.018 E48.82478
G1 X108.392 Y100.103 E48.90927
G1 X109.076 Y100.266 E48.99365
G1 X109.738 Y100.505 E49.07811
G1 X110.369 Y100.818 E49.16263
G1 X110.96 Y101.201 E49.24714
G1 X111.094 Y101.31 E49.26787
G1 X111.607 Y100.994 E49.34017
G1 X112.245 Y100.694 E49.42478
G1 X112.912 Y100.469 E49.50925
G1 X113.6 Y100.321 E49.5937
G1 X114.243 Y100.255 E49.67126
G1 X119.003 Y100.014 E50.24319
G1 X119.707 Y100.018 E50.32767
G1 X120.406 Y100.102 E50.41216
G1 X121.091 Y100.265 E50.49665
G1 X121.753 Y100.505 E50.58115
G1 X122.384 Y100.818 E50.66568
G1 X122.975 Y101.2 E50.75012
G1 X123.471 Y101.603 E50.82681
G1 X123.594 Y101.714 E50.84669
G1 X124.089 Y102.215 E50.93121
G1 X124.524 Y102.768 E51.01564
G1 X124.893 Y103.367 E51.10006
G1 X125.193 Y104.005 E51.18466
G1 X125.418 Y104.672 E51.26914
G1 X125.566 Y105.36 E51.35358
G1 X125.632 Y106.003 E51.43115
G1 X126.126 Y115.756 E52.60301
G1 X126.122 Y116.46 E52.68749
G1 X126.038 Y117.159 E52.77197
G1 X125.875 Y117.844 E52.85647
G1 X125.635 Y118.506 E52.94097
G1 X125.322 Y119.137 E53.02549
G1 X124.94 Y119.728 E53.10994
G1 X124.537 Y120.224 E53.18663
G1 X124.426 Y120.347 E53.20651
G1 X123.925 Y120.842 E53.29102
G1 X123.372 Y121.277 E53.37545
G1 X122.773 Y121.646 E53.45988
G1 X122.135 Y121.946 E53.54448
G1 X121.468 Y122.171 E53.62895
G1 X120.78 Y122.319 E53.7134
G1 X120.137 Y122.385 E53.79097
G1 X115.377 Y122.626 E54.3629
G1 X114.673 Y122.622 E54.44738
G1 X113.974 Y122.538 E54.53186
G1 X113.289 Y122.375 E54.61636
G1 X112.627 Y122.135 E54.70086
G1 X111.996 Y121.822 E54.78538
G1 X111.986 Y121.815 E54.78685
G1 X111.96 Y121.841 E54.79126
G1 X111.407 Y122.276 E54.87569
G1 X110.808 Y122.645 E54.96011
G1 X110.17 Y122.945 E55.04471
G1 X109.503 Y123.17 E55.12919
G1 X108.815 Y123.318 E55.21363
G1 X108.17 Y123.384 E55.29144
G1 X104.026 Y123.593 E55.78935
G1 X103.322 Y123.589 E55.87383
G1 X102.623 Y123.504 E55.95833
G1 X101.939 Y123.341 E56.04271
G1 X101.277 Y123.102 E56.12717
G1 X100.646 Y122.789 E56.21169
G1 X100.055 Y122.406 E56.2962
G1 X99.56 Y122.004 E56.37272
G1 X99.437 Y121.893 E56.3926
G1 X98.942 Y121.392 E56.47712
G1 X98.507 Y120.839 E56.56155
G1 X98.138 Y120.24 E56.64597
G1 X97.838 Y119.602 E56.73057
G1 X97.613 Y118.935 E56.81505
G1 X97.465 Y118.247 E56.89949
G1 X97.399 Y117.603 E56.97718
G1 X96.855 Y106.851 E58.26907
G1 X96.859 Y106.147 E58.35355
G1 X96.943 Y105.448 E58.43803
G1 X97.106 Y104.763 E58.52253
G1 X97.346 Y104.101 E58.60703
G1 X97.659 Y103.471 E58.69144
G1 X98.041 Y102.88 E58.77589
G1 X98.444 Y102.384 E58.85258
G1 X98.555 Y102.261 E58.87246
G1 X99.056 Y101.766 E58.95698
G0 F3900 X99.337 Y102.051
G1 F3000 X99.875 Y101.634 E59.03866
G1 X100.458 Y101.282 E59.12038
G1 X101.078 Y101.001 E59.20207
G1 X101.727 Y100.794 E59.28381
G1 X102.395 Y100.665 E59.36545
G1 X102.866 Y100.622 E59.42221
G1 X107.009 Y100.413 E59.92
G1 X107.69 Y100.419 E60.00172
G1 X108.365 Y100.504 E60.08336
G1 X109.026 Y100.668 E60.16509
G1 X109.663 Y100.909 E60.24682
G1 X110.268 Y101.222 E60.32856
G1 X110.831 Y101.604 E60.4102
G1 X111.083 Y101.814 E60.44956
G1 X111.274 Y101.666 E60.47856
G1 X111.857 Y101.314 E60.56028
G1 X112.477 Y101.033 E60.64197
G1 X113.126 Y100.826 E60.72371
G1 X113.794 Y100.697 E60.80535
G1 X114.264 Y100.654 E60.86199
G1 X119.024 Y100.413 E61.43392
G1 X119.705 Y100.419 E61.51564
G1 X120.38 Y100.504 E61.59728
G1 X121.041 Y100.668 E61.67901
G1 X121.678 Y100.908 E61.76069
G1 X122.283 Y101.222 E61.84249
G1 X122.846 Y101.603 E61.92407
G1 X123.203 Y101.9 E61.97979
G1 X123.326 Y102.011 E61.99967
G1 X123.804 Y102.496 E62.08139
G1 X124.221 Y103.034 E62.16307
G1 X124.573 Y103.617 E62.24479
G1 X124.854 Y104.237 E62.32648
G1 X125.061 Y104.886 E62.40822
G1 X125.19 Y105.554 E62.48987
G1 X125.233 Y106.024 E62.5465
G1 X125.727 Y115.777 E63.71836
G1 X125.721 Y116.457 E63.79996
G1 X125.636 Y117.133 E63.88172
G1 X125.472 Y117.794 E63.96345
G1 X125.232 Y118.431 E64.04513
G1 X124.919 Y119.036 E64.12687
G1 X124.537 Y119.599 E64.20852
G1 X124.24 Y119.956 E64.26424
G1 X124.129 Y120.079 E64.28413
G1 X123.644 Y120.557 E64.36584
G1 X123.106 Y120.974 E64.44752
G1 X122.523 Y121.326 E64.52925
G1 X121.903 Y121.607 E64.61093
G1 X121.254 Y121.814 E64.69268
G1 X120.586 Y121.943 E64.77432
G1 X120.116 Y121.986 E64.83095
G1 X115.356 Y122.227 E65.40288
G1 X114.675 Y122.221 E65.48461
G1 X114 Y122.136 E65.56625
G1 X113.339 Y121.972 E65.64797
G1 X112.702 Y121.732 E65.72966
G1 X112.097 Y121.418 E65.81145
