;FLAVOR:UltiGCode
;TIME:4226
;MATERIAL:8556
;MATERIAL2:0
;NOZZLE_DIAMETER:0.4
;Generated with Cura_SteamEngine 3.6.0
M82 ;absolute extrusion mode

G92 E0
G10
;LAYER_COUNT:40
;LAYER:0
M107
;MESH:0cd998ac-0b17-4d36-b4e6-751d883a951b.stl
G0 F2945.5 X126.899 Y122.147 Z0.3
;TYPE:WALL-INNER
G11
G1 F2700 X121.715 Y128.923 E1.02379
G1 X121.594 Y129.081 E1.04767
G1 X121.436 Y128.96 E1.06312
G1 X115.718 Y124.585 E1.92709
G1 X121.022 Y117.651 E2.97469
G1 X103.072 Y103.919 E5.68672
G1 X97.767 Y110.853 E6.73439
G1 X91.89 Y106.357 E7.62233
G1 X97.194 Y99.423 E8.66993
G1 X82.182 Y87.938 E10.93811
G1 X81.707 Y87.575 E11.00985
G1 X82.304 Y87.579 E11.0475
G1 X82.305 Y87.58 E11.04767
G1 X129.454 Y88.03 E16.70581
G1 X142.224 Y133.418 E22.36383
G1 X142.386 Y133.995 E22.43575
G1 X141.91 Y133.631 E22.47356
G1 X126.899 Y122.147 E24.74157
G0 F2945.5 X126.974 Y122.708
;TYPE:WALL-OUTER
G1 F2700 X121.669 Y129.642 E25.78924
G1 X115.157 Y124.66 E26.77314
G1 X120.461 Y117.726 E27.82074
G1 X103.147 Y104.48 E30.43672
G1 X97.842 Y111.414 E31.48439
G1 X91.329 Y106.432 E32.46839
G1 X96.633 Y99.498 E33.51599
G1 X80.986 Y87.527 E35.88012
G1 X80.511 Y87.164 E35.95186
G1 X81.108 Y87.168 E35.98951
G1 X81.109 Y87.169 E35.98968
G1 X129.758 Y87.633 E41.82782
G1 X142.934 Y134.465 E47.66585
G1 X143.096 Y135.042 E47.73777
G1 X142.62 Y134.678 E47.77558
G1 X126.974 Y122.708 E50.13955
G0 F2945.5 X126.853 Y122.866
G0 X126.457 Y122.562
G0 X126.827 Y121.601
;TYPE:SKIN
G1 F2700 X121.522 Y128.534 E51.18712
G1 X116.265 Y124.513 E51.98134
G1 X121.568 Y117.579 E53.02887
G1 X103 Y103.373 E55.83436
G1 X97.695 Y110.306 E56.88193
G1 X92.437 Y106.285 E57.67625
G1 X97.74 Y99.351 E58.72377
G1 X82.874 Y87.976 E60.97001
G1 X129.158 Y88.418 E66.52435
G1 X141.693 Y132.974 E72.07863
G1 X126.827 Y121.601 E74.32472
G0 F2945.5 X128.758 Y88.594
G1 F2700 X129.123 Y88.959 E74.38667
G0 F2945.5 X129.344 Y89.746
G1 F2700 X128.187 Y88.589 E74.58301
G0 F2945.5 X127.616 Y88.584
G1 F2700 X129.566 Y90.533 E74.91386
G1 X129.636 Y90.603
G0 F2945.5 X129.787 Y91.32
G1 F2700 X127.045 Y88.578 E75.37919
G0 F2945.5 X126.473 Y88.572
G1 F2700 X130.008 Y92.107 E75.9791
G1 X130.078 Y92.177
G0 F2945.5 X130.229 Y92.894
G1 F2700 X125.902 Y88.567 E76.71341
G0 F2945.5 X125.331 Y88.562
G1 F2700 X130.451 Y93.681 E77.58222
G1 X130.521 Y93.751
G0 F2945.5 X130.672 Y94.468
G1 F2700 X124.76 Y88.556 E78.58552
G0 F2945.5 X124.189 Y88.55
G1 F2700 X130.894 Y95.256 E79.72348
G1 X130.964 Y95.326
G0 F2945.5 X131.115 Y96.043
G1 F2700 X123.617 Y88.545 E80.99594
G0 F2945.5 X123.047 Y88.54
G1 F2700 X131.337 Y96.83 E82.4028
G1 X131.407 Y96.9
G0 F2945.5 X131.558 Y97.617
G1 F2700 X122.475 Y88.534 E83.94423
G0 F2945.5 X121.904 Y88.529
G1 F2700 X131.779 Y98.404 E85.62007
G1 X131.849 Y98.474
G0 F2945.5 X132.001 Y99.191
G1 F2700 X121.333 Y88.524 E87.43041
G0 F2945.5 X120.762 Y88.518
G1 F2700 X132.222 Y99.978 E89.37524
G1 X132.292 Y100.048
G0 F2945.5 X132.443 Y100.765
G1 F2700 X120.191 Y88.512 E91.45455
G0 F2945.5 X119.619 Y88.507
G1 F2700 X132.665 Y101.553 E93.66853
G1 X132.735 Y101.623
G0 F2945.5 X132.887 Y102.34
G1 F2700 X119.049 Y88.502 E96.01692
G0 F2945.5 X118.477 Y88.496
G1 F2700 X133.108 Y103.127 E98.49988
G1 X133.178 Y103.197
G0 F2945.5 X133.329 Y103.914
G1 F2700 X117.906 Y88.49 E101.11734
G0 F2945.5 X117.335 Y88.485
G1 F2700 X133.551 Y104.701 E103.86928
G1 X133.621 Y104.771
G0 F2945.5 X133.772 Y105.488
G1 F2700 X116.764 Y88.48 E106.75564
G0 F2945.5 X116.193 Y88.474
G1 F2700 X133.993 Y106.275 E109.77648
G1 X134.063 Y106.345
G0 F2945.5 X134.215 Y107.062
G1 F2700 X115.621 Y88.468 E112.93199
G0 F2945.5 X115.051 Y88.464
G1 F2700 X134.437 Y107.85 E116.2219
G1 X134.507 Y107.92
G0 F2945.5 X134.658 Y108.637
G1 F2700 X114.479 Y88.458 E119.64639
G0 F2945.5 X113.908 Y88.452
G1 F2700 X134.879 Y109.424 E123.20537
G1 X134.949 Y109.494
G0 F2945.5 X135.101 Y110.211
G1 F2700 X113.337 Y88.447 E126.89885
G0 F2945.5 X112.766 Y88.442
G1 F2700 X135.322 Y110.998 E130.72673
G1 X135.392 Y111.068
G0 F2945.5 X135.543 Y111.785
G1 F2700 X112.195 Y88.436 E134.6891
G0 F2945.5 X111.623 Y88.43
G1 F2700 X135.765 Y112.572 E138.78613
G1 X135.835 Y112.642
G0 F2945.5 X135.986 Y113.359
G1 F2700 X111.053 Y88.425 E143.01749
G0 F2945.5 X110.481 Y88.42
G1 F2700 X136.208 Y114.146 E147.38342
G1 X136.278 Y114.216
G0 F2945.5 X136.429 Y114.933
G1 F2700 X109.91 Y88.414 E151.88384
G0 F2945.5 X109.339 Y88.408
G1 F2700 X136.651 Y115.72 E156.51884
G1 X136.721 Y115.79
G0 F2945.5 X136.872 Y116.507
G1 F2700 X108.768 Y88.403 E161.28825
G0 F2945.5 X108.197 Y88.398
G1 F2700 X137.093 Y117.294 E166.19206
G1 X137.163 Y117.364
G0 F2945.5 X137.315 Y118.081
G1 F2700 X107.625 Y88.392 E171.23054
G0 F2945.5 X107.055 Y88.387
G1 F2700 X137.536 Y118.868 E176.40334
G1 X137.606 Y118.938
G0 F2945.5 X137.757 Y119.655
G1 F2700 X106.483 Y88.381 E181.71071
G0 F2945.5 X105.912 Y88.376
G1 F2700 X137.979 Y120.443 E187.15266
G1 X138.049 Y120.513
G0 F2945.5 X138.201 Y121.23
G1 F2700 X105.341 Y88.37 E192.72919
G0 F2945.5 X104.77 Y88.365
G1 F2700 X138.422 Y122.017 E198.44012
G1 X138.492 Y122.087
G0 F2945.5 X138.643 Y122.804
G1 F2700 X104.199 Y88.36 E204.28546
G0 F2945.5 X103.627 Y88.354
G1 F2700 X138.865 Y123.591 E210.26546
G1 X138.935 Y123.661
G0 F2945.5 X139.086 Y124.378
G1 F2700 X103.056 Y88.348 E216.37996
G0 F2945.5 X102.485 Y88.343
G1 F2700 X139.307 Y125.165 E222.62886
G1 X139.377 Y125.235
G0 F2945.5 X139.529 Y125.953
G1 F2700 X101.914 Y88.338 E229.01234
G0 F2945.5 X101.343 Y88.332
G1 F2700 X139.751 Y126.74 E235.53039
G1 X139.821 Y126.81
G0 F2945.5 X139.972 Y127.527
G1 F2700 X100.772 Y88.327 E242.18285
G0 F2945.5 X100.201 Y88.321
G1 F2700 X140.193 Y128.314 E248.9698
G1 X140.263 Y128.384
G0 F2945.5 X140.415 Y129.101
G1 F2700 X99.629 Y88.316 E255.89133
G0 F2945.5 X99.058 Y88.31
G1 F2700 X140.636 Y129.888 E262.94735
G1 X140.706 Y129.958
G0 F2945.5 X140.857 Y130.675
G1 F2700 X98.487 Y88.305 E270.13778
G0 F2945.5 X97.916 Y88.299
G1 F2700 X141.079 Y131.462 E277.46278
G1 X141.149 Y131.532
G0 F2945.5 X141.301 Y132.25
G1 F2700 X97.345 Y88.294 E284.92236
G0 F2945.5 X96.774 Y88.289
G1 F2700 X139.739 Y131.253 E292.21368
G1 X139.809 Y131.323
G0 F2945.5 X137.33 Y129.411
G1 F2700 X96.203 Y88.283 E299.19325
G0 F2945.5 X95.631 Y88.278
G1 F2700 X134.921 Y127.567 E305.8609
G1 X134.991 Y127.637
G0 F2945.5 X132.513 Y125.724
G1 F2700 X95.06 Y88.272 E312.2168
G0 F2945.5 X94.489 Y88.267
G1 F2700 X130.104 Y123.882 E318.26086
G1 X130.174 Y123.952
G0 F2945.5 X127.696 Y122.039
G1 F2700 X93.918 Y88.261 E323.99318
G0 F2945.5 X93.347 Y88.256
G1 F2700 X126.64 Y121.549 E329.64319
G0 F2945.5 X126.395 Y121.869
G1 F2700 X92.775 Y88.25 E335.34861
G0 F2945.5 X92.205 Y88.245
G1 F2700 X120.482 Y116.522 E340.14738
G1 X120.552 Y116.592
G0 F2945.5 X121.683 Y117.723
G1 F2700 X126.149 Y122.19 E340.90537
G0 F2945.5 X125.904 Y122.51
G1 F2700 X121.437 Y118.043 E341.66344
G0 F2945.5 X121.193 Y118.364
G1 F2700 X125.659 Y122.831 E342.42143
G0 F2945.5 X125.414 Y123.151
G1 F2700 X120.947 Y118.685 E343.17942
G0 F2945.5 X120.702 Y119.005
G1 F2700 X125.169 Y123.472 E343.9375
G0 F2945.5 X124.923 Y123.792
G1 F2700 X120.457 Y119.325 E344.69549
G0 F2945.5 X120.212 Y119.646
G1 F2700 X124.678 Y124.112 E345.45339
G0 F2945.5 X124.433 Y124.433
G1 F2700 X119.967 Y119.967 E346.2113
G0 F2945.5 X119.721 Y120.287
G1 F2700 X124.188 Y124.754 E346.96937
G0 F2945.5 X123.943 Y125.074
G1 F2700 X119.476 Y120.607 E347.72745
G0 F2945.5 X119.231 Y120.928
G1 F2700 X123.697 Y125.394 E348.48535
G0 F2945.5 X123.453 Y125.715
G1 F2700 X118.986 Y121.249 E349.24334
G0 F2945.5 X118.74 Y121.569
G1 F2700 X123.207 Y126.036 E350.00142
G0 F2945.5 X122.962 Y126.356
G1 F2700 X118.496 Y121.89 E350.75932
G0 F2945.5 X118.25 Y122.21
G1 F2700 X122.716 Y126.676 E351.51723
G0 F2945.5 X122.471 Y126.997
G1 F2700 X118.005 Y122.53 E352.27522
G0 F2945.5 X117.76 Y122.851
G1 F2700 X122.226 Y127.318 E353.03321
G0 F2945.5 X121.981 Y127.638
G1 F2700 X117.515 Y123.172 E353.79111
G0 F2945.5 X117.27 Y123.492
G1 F2700 X121.736 Y127.958 E354.54902
G0 F2945.5 X121.49 Y128.279
G1 F2700 X117.024 Y123.812 E355.30701
G0 F2945.5 X116.779 Y124.133
G1 F2700 X119.095 Y126.449 E355.70005
G1 X119.165 Y126.519
G0 F2945.5 X116.691 Y124.61
G1 F2700 X116.534 Y124.454 E355.72661
G0 F2945.5 X121.06 Y117.646
G0 X118.072 Y114.678
G1 F2700 X91.633 Y88.239 E360.21345
G0 F2945.5 X91.062 Y88.234
G1 F2700 X115.663 Y112.835 E364.38838
G1 X115.733 Y112.905
G0 F2945.5 X113.254 Y110.991
G1 F2700 X90.491 Y88.229 E368.25131
G0 F2945.5 X89.92 Y88.223
G1 F2700 X110.845 Y109.148 E371.8024
G1 X110.915 Y109.218
G0 F2945.5 X108.436 Y107.304
G1 F2700 X89.349 Y88.217 E375.04157
G0 F2945.5 X88.777 Y88.212
G1 F2700 X106.027 Y105.461 E377.9689
G1 X106.097 Y105.531
G0 F2945.5 X103.617 Y103.617
G1 F2700 X88.207 Y88.207 E380.58407
G0 F2945.5 X87.635 Y88.201
G1 F2700 X102.788 Y103.354 E383.15562
G0 F2945.5 X102.543 Y103.674
G1 F2700 X87.064 Y88.196 E385.78241
G0 F2945.5 X86.494 Y88.191
G1 F2700 X96.407 Y98.104 E387.4647
G1 X96.477 Y98.174
G0 F2945.5 X97.831 Y99.528
G1 F2700 X102.298 Y103.995 E388.22277
G0 F2945.5 X102.053 Y104.315
G1 F2700 X97.585 Y99.848 E388.98093
G0 F2945.5 X97.34 Y100.168
G1 F2700 X101.807 Y104.636 E389.73909
G0 F2945.5 X101.562 Y104.956
G1 F2700 X97.094 Y100.489 E390.49725
G0 F2945.5 X96.85 Y100.81
G1 F2700 X101.317 Y105.276 E391.25524
G0 F2945.5 X101.071 Y105.597
G1 F2700 X96.604 Y101.13 E392.01332
G0 F2945.5 X96.359 Y101.45
G1 F2700 X100.826 Y105.917 E392.77139
G0 F2945.5 X100.581 Y106.238
G1 F2700 X96.114 Y101.771 E393.52947
G0 F2945.5 X95.869 Y102.092
G1 F2700 X100.336 Y106.558 E394.28746
G0 F2945.5 X100.09 Y106.879
G1 F2700 X95.624 Y102.412 E395.04545
G0 F2945.5 X95.379 Y102.733
G1 F2700 X99.845 Y107.199 E395.80335
G0 F2945.5 X99.6 Y107.519
G1 F2700 X95.134 Y103.053 E396.56126
G0 F2945.5 X94.888 Y103.374
G1 F2700 X99.354 Y107.84 E397.31916
G0 F2945.5 X99.11 Y108.161
G1 F2700 X94.643 Y103.694 E398.07724
G0 F2945.5 X94.398 Y104.015
G1 F2700 X98.864 Y108.481 E398.83515
G0 F2945.5 X98.619 Y108.801
G1 F2700 X94.153 Y104.335 E399.59305
G0 F2945.5 X93.908 Y104.656
G1 F2700 X98.374 Y109.122 E400.35096
G0 F2945.5 X98.128 Y109.442
G1 F2700 X93.663 Y104.977 E401.10869
G0 F2945.5 X93.417 Y105.297
G1 F2700 X97.883 Y109.762 E401.86651
G0 F2945.5 X97.437 Y109.882
G1 F2700 X93.172 Y105.617 E402.59031
G0 F2945.5 X92.927 Y105.938
G1 F2700 X95.033 Y108.043 E402.94762
G1 X95.103 Y108.113
G0 F2945.5 X97.232 Y99.418
G0 X93.997 Y96.26
G1 F2700 X85.922 Y88.185 E404.31799
G0 F2945.5 X85.351 Y88.179
G1 F2700 X91.588 Y94.416 E405.37645
G1 X91.658 Y94.486
G0 F2945.5 X89.178 Y92.572
G1 F2700 X84.779 Y88.174 E406.1229
G0 F2945.5 X84.209 Y88.169
G1 F2700 X86.768 Y90.728 E406.55718
G1 X86.838 Y90.798
G0 F2945.5 X84.358 Y88.884
G1 F2700 X83.638 Y88.163 E406.67945
G1 X83.568 Y88.093
G10
G0 F2945.5 X97.232 Y99.418
G0 X97.765 Y110.833
G0 X99.298 Y112.01
G0 X97.424 Y114.544
G0 X97.411 Y114.446
;TYPE:WALL-INNER
G11
G1 F2700 X103.487 Y106.504 E407.87941
G1 X118.418 Y117.926 E410.13527
G1 X112.343 Y125.869 E411.33525
G1 X121.239 Y132.674 E412.67929
G1 X127.315 Y124.732 E413.87925
G1 X140.817 Y135.062 E415.91929
G1 X141.292 Y135.425 E415.99103
G1 X140.695 Y135.421 E416.02868
G1 X140.694 Y135.42 E416.02885
G1 X93.546 Y134.97 E421.68687
G1 X80.776 Y89.582 E427.3449
G1 X80.614 Y89.005 E427.41681
G1 X81.09 Y89.369 E427.45463
G1 X94.591 Y99.698 E429.4945
G1 X88.516 Y107.641 E430.69449
G1 X97.411 Y114.446 E432.03843
G0 F2945.5 X97.336 Y113.885
;TYPE:WALL-OUTER
G1 F2700 X97.457 Y113.727 E432.06231
G1 X103.412 Y105.943 E433.23839
G1 X118.979 Y117.851 E435.5903
G1 X112.904 Y125.794 E436.79028
G1 X121.164 Y132.113 E438.03827
G1 X127.24 Y124.171 E439.23822
G1 X142.013 Y135.472 E441.47021
G1 X142.489 Y135.836 E441.54211
G1 X141.89 Y135.831 E441.57991
G1 X93.242 Y135.367 E447.41794
G1 X80.066 Y88.534 E453.25608
G1 X80.065 Y88.533 E453.25625
G1 X79.904 Y87.958 E453.3279
G1 X80.379 Y88.321 E453.36561
G1 X95.152 Y99.623 E455.59766
G1 X89.077 Y107.566 E456.79764
G1 X97.178 Y113.764 E458.02165
G1 X97.336 Y113.885 E458.0371
G0 F2945.5 X97.457 Y113.727
G0 X97.853 Y114.031
G0 X97.483 Y114.992
;TYPE:SKIN
G1 F2700 X103.559 Y107.051 E459.23696
G1 X117.871 Y117.998 E461.3992
G1 X111.797 Y125.941 E462.59911
G1 X121.311 Y133.22 E464.0366
G1 X127.387 Y125.279 E465.23647
G1 X140.125 Y135.024 E467.16104
G1 X93.842 Y134.582 E472.71526
G1 X81.307 Y90.027 E478.26942
G1 X94.044 Y99.77 E480.19376
G1 X87.97 Y107.713 E481.39366
G1 X97.483 Y114.992 E482.83107
G0 F2945.5 X94.241 Y134.404
G1 F2700 X93.876 Y134.039 E482.89301
G0 F2945.5 X93.654 Y133.252
G1 F2700 X94.812 Y134.41 E483.08953
G0 F2945.5 X95.383 Y134.415
G1 F2700 X93.433 Y132.465 E483.42045
G1 X93.363 Y132.395
G0 F2945.5 X93.212 Y131.678
G1 F2700 X95.954 Y134.42 E483.88579
G0 F2945.5 X96.525 Y134.426
G1 F2700 X92.99 Y130.891 E484.4857
G1 X92.92 Y130.821
G0 F2945.5 X92.769 Y130.104
G1 F2700 X97.097 Y134.432 E485.22018
G0 F2945.5 X97.667 Y134.437
G1 F2700 X92.547 Y129.317 E486.08908
G1 X92.477 Y129.247
G0 F2945.5 X92.326 Y128.53
G1 F2700 X98.239 Y134.442 E487.09246
G0 F2945.5 X98.81 Y134.448
G1 F2700 X92.104 Y127.743 E488.23042
G1 X92.034 Y127.673
G0 F2945.5 X91.883 Y126.956
G1 F2700 X99.381 Y134.454 E489.50287
G0 F2945.5 X99.952 Y134.459
G1 F2700 X91.662 Y126.169 E490.90973
G1 X91.592 Y126.099
G0 F2945.5 X91.44 Y125.382
G1 F2700 X100.523 Y134.464 E492.45108
G0 F2945.5 X101.095 Y134.47
G1 F2700 X91.219 Y124.595 E494.12701
G1 X91.149 Y124.525
G0 F2945.5 X90.997 Y123.807
G1 F2700 X101.665 Y134.475 E495.93743
G0 F2945.5 X102.237 Y134.481
G1 F2700 X90.776 Y123.02 E497.88243
G1 X90.706 Y122.95
G0 F2945.5 X90.554 Y122.233
G1 F2700 X102.808 Y134.486 E499.96192
G0 F2945.5 X103.379 Y134.492
G1 F2700 X90.333 Y121.446 E502.1759
G1 X90.263 Y121.376
G0 F2945.5 X90.112 Y120.659
G1 F2700 X103.95 Y134.497 E504.52428
G0 F2945.5 X104.521 Y134.503
G1 F2700 X89.89 Y119.872 E507.00725
G1 X89.82 Y119.802
G0 F2945.5 X89.668 Y119.084
G1 F2700 X105.093 Y134.508 E509.62487
G0 F2945.5 X105.663 Y134.513
G1 F2700 X89.447 Y118.297 E512.37682
G1 X89.377 Y118.227
G0 F2945.5 X89.226 Y117.51
G1 F2700 X106.235 Y134.519 E515.26334
G0 F2945.5 X106.806 Y134.524
G1 F2700 X89.004 Y116.723 E518.28435
G1 X88.934 Y116.653
G0 F2945.5 X88.783 Y115.936
G1 F2700 X107.377 Y134.53 E521.43986
G0 F2945.5 X107.948 Y134.535
G1 F2700 X88.562 Y115.149 E524.72977
G1 X88.492 Y115.079
G0 F2945.5 X88.34 Y114.361
G1 F2700 X108.519 Y134.541 E528.15435
G0 F2945.5 X109.091 Y134.546
G1 F2700 X88.118 Y113.574 E531.7135
G1 X88.048 Y113.504
G0 F2945.5 X87.897 Y112.787
G1 F2700 X109.662 Y134.552 E535.40714
G0 F2945.5 X110.232 Y134.557
G1 F2700 X87.676 Y112 E539.23511
G1 X87.606 Y111.93
G0 F2945.5 X87.454 Y111.213
G1 F2700 X110.804 Y134.563 E543.19773
G0 F2945.5 X111.375 Y134.568
G1 F2700 X87.233 Y110.426 E547.29477
G1 X87.163 Y110.356
G0 F2945.5 X87.012 Y109.639
G1 F2700 X111.946 Y134.573 E551.52621
G0 F2945.5 X112.517 Y134.579
G1 F2700 X86.79 Y108.852 E555.89222
G1 X86.72 Y108.782
G0 F2945.5 X86.568 Y108.065
G1 F2700 X113.089 Y134.585 E560.3929
G0 F2945.5 X113.66 Y134.59
G1 F2700 X86.347 Y107.277 E565.02807
G1 X86.277 Y107.207
G0 F2945.5 X86.126 Y106.49
G1 F2700 X114.23 Y134.595 E569.79756
G0 F2945.5 X114.802 Y134.601
G1 F2700 X88.688 Y108.487 E574.22926
G1 X88.618 Y108.417
G0 F2945.5 X87.817 Y107.615
G1 F2700 X85.904 Y105.703 E574.55382
G1 X85.834 Y105.633
G0 F2945.5 X85.683 Y104.916
G1 F2700 X88.062 Y107.295 E574.95755
G0 F2945.5 X88.307 Y106.974
G1 F2700 X85.461 Y104.129 E575.44045
G1 X85.391 Y104.059
G0 F2945.5 X85.24 Y103.342
G1 F2700 X88.552 Y106.654 E576.00251
G0 F2945.5 X88.797 Y106.334
G1 F2700 X85.018 Y102.555 E576.64383
G1 X84.948 Y102.485
G0 F2945.5 X84.797 Y101.768
G1 F2700 X89.043 Y106.013 E577.36431
G0 F2945.5 X89.287 Y105.692
G1 F2700 X84.576 Y100.981 E578.1638
G1 X84.506 Y100.911
G0 F2945.5 X84.355 Y100.194
G1 F2700 X89.533 Y105.372 E579.04253
G0 F2945.5 X89.778 Y105.052
G1 F2700 X84.132 Y99.406 E580.00069
G1 X84.062 Y99.336
G0 F2945.5 X83.911 Y98.619
G1 F2700 X90.023 Y104.731 E581.03793
G0 F2945.5 X90.268 Y104.41
G1 F2700 X83.69 Y97.832 E582.15425
G1 X83.62 Y97.762
G0 F2945.5 X83.469 Y97.045
G1 F2700 X90.513 Y104.09 E583.34975
G0 F2945.5 X90.759 Y103.77
