;FLAVOR:UltiGCode
;TIME:1992
;MATERIAL:3078
;MATERIAL2:0
;NOZZLE_DIAMETER:0.4
;Generated with Cura_SteamEngine 3.6.0
M82 ;absolute extrusion mode

G92 E0
G10
;LAYER_COUNT:33
;LAYER:0
M107
;MESH:96ef734e-311b-4d2f-a183-819c1bcb2288.stl
G0 F2945.5 X120.4 Y88.9 Z0.3
;TYPE:WALL-INNER
G11
G1 F2700 X102.6 Y88.9 E2.136
G1 X102.6 Y88.1 E2.232
G1 X120.4 Y88.1 E4.368
G1 X120.4 Y88.9 E4.464
G0 F2945.5 X120.8 Y89.3
;TYPE:WALL-OUTER
G1 F2700 X102.2 Y89.3 E6.696
G1 X102.2 Y87.7 E6.888
G1 X120.8 Y87.7 E9.12
G1 X120.8 Y89.3 E9.312
G0 F2945.5 X120.6 Y89.3
G0 X120.33 Y88.83
G0 X120.01 Y88.51
;TYPE:SKIN
G1 F2700 X102.99 Y88.51 E11.3544
G1 X102.99 Y88.49 E11.3568
G1 X120.01 Y88.49 E13.3992
G1 X120.01 Y88.51 E13.4016
G0 F2945.5 X120 Y88.5
G10
G0 X120.33 Y88.88
G0 X120.33 Y90.165
G0 X120.33 Y91.835
G0 X120.33 Y93.12
G0 X120.33 Y93.83
G0 X120.4 Y93.9
;TYPE:WALL-INNER
G11
G1 F2700 X102.6 Y93.9 E15.5376
G1 X102.6 Y93.1 E15.6336
G1 X120.4 Y93.1 E17.7696
G1 X120.4 Y93.9 E17.8656
G0 F2945.5 X120.8 Y94.3
;TYPE:WALL-OUTER
G1 F2700 X102.2 Y94.3 E20.0976
G1 X102.2 Y92.7 E20.2896
G1 X120.8 Y92.7 E22.5216
G1 X120.8 Y94.3 E22.7136
G0 F2945.5 X120.6 Y94.3
G0 X120.33 Y93.83
G0 X120.01 Y93.51
;TYPE:SKIN
G1 F2700 X102.99 Y93.51 E24.756
G1 X102.99 Y93.49 E24.7584
G1 X120.01 Y93.49 E26.8008
G1 X120.01 Y93.51 E26.8032
G0 F2945.5 X120 Y93.5
G10
G0 X120.33 Y93.88
G0 X120.33 Y95.165
G0 X120.33 Y96.835
G0 X120.33 Y98.12
G0 X120.33 Y98.83
G0 X120.4 Y98.9
;TYPE:WALL-INNER
G11
G1 F2700 X102.6 Y98.9 E28.9392
G1 X102.6 Y98.1 E29.0352
G1 X120.4 Y98.1 E31.1712
G1 X120.4 Y98.9 E31.2672
G0 F2945.5 X120.8 Y99.3
;TYPE:WALL-OUTER
G1 F2700 X102.2 Y99.3 E33.4992
G1 X102.2 Y97.7 E33.6912
G1 X120.8 Y97.7 E35.9232
G1 X120.8 Y99.3 E36.1152
G0 F2945.5 X120.6 Y99.3
G0 X120.33 Y98.83
G0 X120.01 Y98.51
;TYPE:SKIN
G1 F2700 X102.99 Y98.51 E38.1576
G1 X102.99 Y98.49 E38.16
G1 X120.01 Y98.49 E40.2024
G1 X120.01 Y98.51 E40.2048
G0 F2945.5 X120 Y98.5
G10
G0 X120.33 Y98.88
G0 X120.33 Y100.165
G0 X120.33 Y101.835
G0 X120.33 Y103.12
G0 X120.33 Y103.83
G0 X120.4 Y103.9
;TYPE:WALL-INNER
G11
G1 F2700 X102.6 Y103.9 E42.3408
G1 X102.6 Y103.1 E42.4368
G1 X120.4 Y103.1 E44.5728
G1 X120.4 Y103.9 E44.6688
G0 F2945.5 X120.8 Y104.3
;TYPE:WALL-OUTER
G1 F2700 X102.2 Y104.3 E46.9008
G1 X102.2 Y102.7 E47.0928
G1 X120.8 Y102.7 E49.3248
G1 X120.8 Y104.3 E49.5168
G0 F2945.5 X120.6 Y104.3
G0 X120.33 Y103.83
G0 X120.01 Y103.51
;TYPE:SKIN
G1 F2700 X102.99 Y103.51 E51.5592
G1 X102.99 Y103.49 E51.5616
G1 X120.01 Y103.49 E53.604
G1 X120.01 Y103.51 E53.6064
G0 F2945.5 X120 Y103.5
G10
G0 X120.33 Y103.88
G0 X120.33 Y105.165
G0 X120.33 Y105.835
G0 X120.33 Y107.12
G0 X120.33 Y107.83
G0 X120.4 Y107.9
;TYPE:WALL-INNER
G11
G1 F2700 X102.6 Y107.9 E55.7424
G1 X102.6 Y107.1 E55.8384
G1 X120.4 Y107.1 E57.9744
G1 X120.4 Y107.9 E58.0704
G0 F2945.5 X120.8 Y108.3
;TYPE:WALL-OUTER
G1 F2700 X102.2 Y108.3 E60.3024
G1 X102.2 Y106.7 E60.4944
G1 X120.8 Y106.7 E62.7264
G1 X120.8 Y108.3 E62.9184
G0 F2945.5 X120.6 Y108.3
G0 X120.33 Y107.83
G0 X120.01 Y107.51
;TYPE:SKIN
G1 F2700 X102.99 Y107.51 E64.9608
G1 X102.99 Y107.49 E64.9632
G1 X120.01 Y107.49 E67.0056
G1 X120.01 Y107.51 E67.008
G0 F2945.5 X120 Y107.5
G10
G0 X120.33 Y107.88
G0 X120.33 Y109.165
G0 X120.33 Y110.835
G0 X120.33 Y112.12
G0 X120.33 Y112.83
G0 X120.4 Y112.9
;TYPE:WALL-INNER
G11
G1 F2700 X102.6 Y112.9 E69.144
G1 X102.6 Y112.1 E69.24
G1 X120.4 Y112.1 E71.376
G1 X120.4 Y112.9 E71.472
G0 F2945.5 X120.8 Y113.3
;TYPE:WALL-OUTER
G1 F2700 X102.2 Y113.3 E73.704
G1 X102.2 Y111.7 E73.896
G1 X120.8 Y111.7 E76.128
G1 X120.8 Y113.3 E76.32
G0 F2945.5 X120.6 Y113.3
G0 X120.33 Y112.83
G0 X120.01 Y112.51
;TYPE:SKIN
G1 F2700 X102.99 Y112.51 E78.3624
G1 X102.99 Y112.49 E78.3648
G1 X120.01 Y112.49 E80.4072
G1 X120.01 Y112.51 E80.4096
G0 F2945.5 X120 Y112.5
G10
G0 X120.33 Y112.88
G0 X120.33 Y114.165
G0 X120.33 Y115.835
G0 X120.33 Y117.12
G0 X120.33 Y117.83
G0 X120.4 Y117.9
;TYPE:WALL-INNER
G11
G1 F2700 X102.6 Y117.9 E82.5456
G1 X102.6 Y117.1 E82.6416
G1 X120.4 Y117.1 E84.7776
G1 X120.4 Y117.9 E84.8736
G0 F2945.5 X120.8 Y118.3
;TYPE:WALL-OUTER
G1 F2700 X102.2 Y118.3 E87.1056
G1 X102.2 Y116.7 E87.2976
G1 X120.8 Y116.7 E89.5296
G1 X120.8 Y118.3 E89.7216
G0 F2945.5 X120.6 Y118.3
G0 X120.33 Y117.83
G0 X120.01 Y117.51
;TYPE:SKIN
G1 F2700 X102.99 Y117.51 E91.764
G1 X102.99 Y117.49 E91.7664
G1 X120.01 Y117.49 E93.8088
G1 X120.01 Y117.51 E93.8112
G0 F2945.5 X120 Y117.5
G10
G0 X120.33 Y117.88
G0 X120.33 Y119.165
G0 X120.33 Y121.835
G0 X120.33 Y123.12
G0 X120.33 Y123.83
G0 X120.4 Y123.9
;TYPE:WALL-INNER
G11
G1 F2700 X102.6 Y123.9 E95.9472
G1 X102.6 Y123.1 E96.0432
G1 X120.4 Y123.1 E98.1792
G1 X120.4 Y123.9 E98.2752
G0 F2945.5 X120.8 Y124.3
;TYPE:WALL-OUTER
G1 F2700 X102.2 Y124.3 E100.5072
G1 X102.2 Y122.7 E100.6992
G1 X120.8 Y122.7 E102.9312
G1 X120.8 Y124.3 E103.1232
G0 F2945.5 X120.6 Y124.3
G0 X120.33 Y123.83
G0 X120.01 Y123.51
;TYPE:SKIN
G1 F2700 X102.99 Y123.51 E105.1656
G1 X102.99 Y123.49 E105.168
G1 X120.01 Y123.49 E107.2104
G1 X120.01 Y123.51 E107.2128
G0 F2945.5 X120 Y123.5
G10
G0 X120.33 Y123.88
G0 X120.33 Y125.165
G0 X120.33 Y125.835
G0 X120.33 Y127.12
G0 X120.33 Y127.83
G0 X120.4 Y127.9
;TYPE:WALL-INNER
G11
G1 F2700 X102.6 Y127.9 E109.3488
G1 X102.6 Y127.1 E109.4448
G1 X120.4 Y127.1 E111.5808
G1 X120.4 Y127.9 E111.6768
G0 F2945.5 X120.8 Y128.3
;TYPE:WALL-OUTER
G1 F2700 X102.2 Y128.3 E113.9088
G1 X102.2 Y126.7 E114.1008
G1 X120.8 Y126.7 E116.3328
G1 X120.8 Y128.3 E116.5248
G0 F2945.5 X120.6 Y128.3
G0 X120.33 Y127.83
G0 X120.01 Y127.51
;TYPE:SKIN
G1 F2700 X102.99 Y127.51 E118.5672
G1 X102.99 Y127.49 E118.5696
G1 X120.01 Y127.49 E120.612
G1 X120.01 Y127.51 E120.6144
G0 F2945.5 X120 Y127.5
G10
G0 X120.33 Y127.88
G0 X120.33 Y129.165
G0 X120.33 Y129.835
G0 X120.33 Y131.12
G0 X120.33 Y131.83
G0 X120.4 Y131.9
;TYPE:WALL-INNER
G11
G1 F2700 X102.6 Y131.9 E122.7504
G1 X102.6 Y131.1 E122.8464
G1 X120.4 Y131.1 E124.9824
G1 X120.4 Y131.9 E125.0784
G0 F2945.5 X120.8 Y132.3
;TYPE:WALL-OUTER
G1 F2700 X102.2 Y132.3 E127.3104
G1 X102.2 Y130.7 E127.5024
G1 X120.8 Y130.7 E129.7344
G1 X120.8 Y132.3 E129.9264
G0 F2945.5 X120.6 Y132.3
G0 X120.33 Y131.83
G0 X120.01 Y131.51
;TYPE:SKIN
G1 F2700 X102.99 Y131.51 E131.9688
G1 X102.99 Y131.49 E131.9712
G1 X120.01 Y131.49 E134.0136
G1 X120.01 Y131.51 E134.016
G0 F2945.5 X120 Y131.5
G10
G0 X120.33 Y131.88
G0 X120.33 Y133.165
G0 X120.33 Y133.835
G0 X120.33 Y135.12
G0 X120.33 Y135.83
G0 X120.4 Y135.9
;TYPE:WALL-INNER
G11
G1 F2700 X102.6 Y135.9 E136.152
G1 X102.6 Y135.1 E136.248
G1 X120.4 Y135.1 E138.384
G1 X120.4 Y135.9 E138.48
G0 F2945.5 X120.8 Y136.3
;TYPE:WALL-OUTER
G1 F2700 X102.2 Y136.3 E140.712
G1 X102.2 Y134.7 E140.904
G1 X120.8 Y134.7 E143.136
G1 X120.8 Y136.3 E143.328
G0 F2945.5 X120.6 Y136.3
G0 X120.33 Y135.83
G0 X120.01 Y135.51
;TYPE:SKIN
G1 F2700 X102.99 Y135.51 E145.3704
G1 X102.99 Y135.49 E145.3728
G1 X120.01 Y135.49 E147.4152
G1 X120.01 Y135.51 E147.4176
G0 F2945.5 X120 Y135.5
G10
;MESH:NONMESH
G0 X120.33 Y135.12
G0 X120.33 Y133.835
G0 X121.653 Y133.153
G0 X121.653 Y91.847
G0 X120.33 Y90.165
G0 X120.33 Y88.88
G0 X120.33 Y88.83
G0 X120.4 Y88.9
;TIME_ELAPSED:39.855685
;LAYER:1
M106 S255
;MESH:96ef734e-311b-4d2f-a183-819c1bcb2288.stl
G0 F3272.7 X120.4 Y88.9 Z0.45
;TYPE:WALL-INNER
G11
G1 F3150 X102.6 Y88.9 E148.4856
G1 X102.6 Y88.1 E148.5336
G1 X120.4 Y88.1 E149.6016
G1 X120.4 Y88.9 E149.6496
G0 F3272.7 X120.8 Y89.3
;TYPE:WALL-OUTER
G1 F2550 X102.2 Y89.3 E150.7656
G1 X102.2 Y87.7 E150.8616
G1 X120.8 Y87.7 E151.9776
G1 X120.8 Y89.3 E152.0736
G0 F3272.7 X120.6 Y89.3
G0 X120.33 Y88.83
G0 X120.01 Y88.51
;TYPE:SKIN
G1 F2175 X102.99 Y88.51 E153.0948
G1 X102.99 Y88.49 E153.096
G1 X120.01 Y88.49 E154.1172
G1 X120.01 Y88.51 E154.1184
G0 F3272.7 X120 Y88.5
G10
G0 X120.33 Y88.88
G0 X120.33 Y90.165
G0 X120.33 Y91.835
G0 X120.33 Y93.12
G0 X120.33 Y93.83
G0 X120.4 Y93.9
;TYPE:WALL-INNER
G11
G1 F3150 X102.6 Y93.9 E155.1864
G1 X102.6 Y93.1 E155.2344
G1 X120.4 Y93.1 E156.3024
G1 X120.4 Y93.9 E156.3504
G0 F3272.7 X120.8 Y94.3
;TYPE:WALL-OUTER
G1 F2550 X102.2 Y94.3 E157.4664
G1 X102.2 Y92.7 E157.5624
G1 X120.8 Y92.7 E158.6784
G1 X120.8 Y94.3 E158.7744
G0 F3272.7 X120.6 Y94.3
G0 X120.33 Y93.83
G0 X120.01 Y93.51
;TYPE:SKIN
G1 F2175 X102.99 Y93.51 E159.7956
G1 X102.99 Y93.49 E159.7968
G1 X120.01 Y93.49 E160.818
G1 X120.01 Y93.51 E160.8192
G0 F3272.7 X120 Y93.5
G10
G0 X120.33 Y93.88
G0 X120.33 Y95.165
G0 X120.33 Y96.835
G0 X120.33 Y98.12
G0 X120.33 Y98.83
G0 X120.4 Y98.9
;TYPE:WALL-INNER
G11
G1 F3150 X102.6 Y98.9 E161.8872
G1 X102.6 Y98.1 E161.9352
G1 X120.4 Y98.1 E163.0032
G1 X120.4 Y98.9 E163.0512
G0 F3272.7 X120.8 Y99.3
;TYPE:WALL-OUTER
G1 F2550 X102.2 Y99.3 E164.1672
G1 X102.2 Y97.7 E164.2632
G1 X120.8 Y97.7 E165.3792
G1 X120.8 Y99.3 E165.4752
G0 F3272.7 X120.6 Y99.3
G0 X120.33 Y98.83
G0 X120.01 Y98.51
;TYPE:SKIN
G1 F2175 X102.99 Y98.51 E166.4964
G1 X102.99 Y98.49 E166.4976
G1 X120.01 Y98.49 E167.5188
G1 X120.01 Y98.51 E167.52
G0 F3272.7 X120 Y98.5
G10
G0 X120.33 Y98.88
G0 X120.33 Y100.165
G0 X120.33 Y101.835
G0 X120.33 Y103.12
G0 X120.33 Y103.83
G0 X120.4 Y103.9
;TYPE:WALL-INNER
G11
G1 F3150 X102.6 Y103.9 E168.588
G1 X102.6 Y103.1 E168.636
G1 X120.4 Y103.1 E169.704
G1 X120.4 Y103.9 E169.752
G0 F3272.7 X120.8 Y104.3
;TYPE:WALL-OUTER
G1 F2550 X102.2 Y104.3 E170.868
G1 X102.2 Y102.7 E170.964
G1 X120.8 Y102.7 E172.08
G1 X120.8 Y104.3 E172.176
G0 F3272.7 X120.6 Y104.3
G0 X120.33 Y103.83
G0 X120.01 Y103.51
;TYPE:SKIN
G1 F2175 X102.99 Y103.51 E173.1972
G1 X102.99 Y103.49 E173.1984
G1 X120.01 Y103.49 E174.2196
G1 X120.01 Y103.51 E174.2208
G0 F3272.7 X120 Y103.5
G10
G0 X120.33 Y103.88
G0 X120.33 Y105.165
G0 X120.33 Y105.835
G0 X120.33 Y107.12
G0 X120.33 Y107.83
G0 X120.4 Y107.9
;TYPE:WALL-INNER
G11
G1 F3150 X102.6 Y107.9 E175.2888
G1 X102.6 Y107.1 E175.3368
G1 X120.4 Y107.1 E176.4048
G1 X120.4 Y107.9 E176.4528
G0 F3272.7 X120.8 Y108.3
;TYPE:WALL-OUTER
G1 F2550 X102.2 Y108.3 E177.5688
G1 X102.2 Y106.7 E177.6648
G1 X120.8 Y106.7 E178.7808
G1 X120.8 Y108.3 E178.8768
G0 F3272.7 X120.6 Y108.3
G0 X120.33 Y107.83
G0 X120.01 Y107.51
;TYPE:SKIN
G1 F2175 X102.99 Y107.51 E179.898
G1 X102.99 Y107.49 E179.8992
G1 X120.01 Y107.49 E180.9204
G1 X120.01 Y107.51 E180.9216
G0 F3272.7 X120 Y107.5
G10
G0 X120.33 Y107.88
G0 X120.33 Y109.165
G0 X120.33 Y110.835
G0 X120.33 Y112.12
G0 X120.33 Y112.83
G0 X120.4 Y112.9
;TYPE:WALL-INNER
G11
G1 F3150 X102.6 Y112.9 E181.9896
G1 X102.6 Y112.1 E182.0376
G1 X120.4 Y112.1 E183.1056
G1 X120.4 Y112.9 E183.1536
G0 F3272.7 X120.8 Y113.3
;TYPE:WALL-OUTER
G1 F2550 X102.2 Y113.3 E184.2696
G1 X102.2 Y111.7 E184.3656
G1 X120.8 Y111.7 E185.4816
G1 X120.8 Y113.3 E185.5776
G0 F3272.7 X120.6 Y113.3
G0 X120.33 Y112.83
G0 X120.01 Y112.51
;TYPE:SKIN
G1 F2175 X102.99 Y112.51 E186.5988
G1 X102.99 Y112.49 E186.6
G1 X120.01 Y112.49 E187.6212
G1 X120.01 Y112.51 E187.6224
G0 F3272.7 X120 Y112.5
G10
G0 X120.33 Y112.88
G0 X120.33 Y114.165
G0 X120.33 Y115.835
G0 X120.33 Y117.12
G0 X120.33 Y117.83
G0 X120.4 Y117.9
;TYPE:WALL-INNER
G11
G1 F3150 X102.6 Y117.9 E188.6904
G1 X102.6 Y117.1 E188.7384
G1 X120.4 Y117.1 E189.8064
G1 X120.4 Y117.9 E189.8544
G0 F3272.7 X120.8 Y118.3
;TYPE:WALL-OUTER
G1 F2550 X102.2 Y118.3 E190.9704
G1 X102.2 Y116.7 E191.0664
G1 X120.8 Y116.7 E192.1824
G1 X120.8 Y118.3 E192.2784
G0 F3272.7 X120.6 Y118.3
G0 X120.33 Y117.83
G0 X120.01 Y117.51
;TYPE:SKIN
G1 F2175 X102.99 Y117.51 E193.2996
G1 X102.99 Y117.49 E193.3008
G1 X120.01 Y117.49 E194.322
G1 X120.01 Y117.51 E194.3232
G0 F3272.7 X120 Y117.5
G10
G0 X120.33 Y117.88
G0 X120.33 Y119.165
G0 X120.33 Y121.835
G0 X120.33 Y123.12
G0 X120.33 Y123.83
G0 X120.4 Y123.9
;TYPE:WALL-INNER
G11
G1 F3150 X102.6 Y123.9 E195.3912
G1 X102.6 Y123.1 E195.4392
G1 X120.4 Y123.1 E196.5072
G1 X120.4 Y123.9 E196.5552
G0 F3272.7 X120.8 Y124.3
;TYPE:WALL-OUTER
G1 F2550 X102.2 Y124.3 E197.6712
G1 X102.2 Y122.7 E197.7672
G1 X120.8 Y122.7 E198.8832
G1 X120.8 Y124.3 E198.9792
G0 F3272.7 X120.6 Y124.3
G0 X120.33 Y123.83
G0 X120.01 Y123.51
;TYPE:SKIN
G1 F2175 X102.99 Y123.51 E200.0004
G1 X102.99 Y123.49 E200.0016
G1 X120.01 Y123.49 E201.0228
G1 X120.01 Y123.51 E201.024
G0 F3272.7 X120 Y123.5
G10
G0 X120.33 Y123.88
G0 X120.33 Y125.165
G0 X120.33 Y125.835
G0 X120.33 Y127.12
G0 X120.33 Y127.83
G0 X120.4 Y127.9
;TYPE:WALL-INNER
G11
G1 F3150 X102.6 Y127.9 E202.092
G1 X102.6 Y127.1 E202.14
G1 X120.4 Y127.1 E203.208
G1 X120.4 Y127.9 E203.256
G0 F3272.7 X120.8 Y128.3
;TYPE:WALL-OUTER
G1 F2550 X102.2 Y128.3 E204.372
G1 X102.2 Y126.7 E204.468
G1 X120.8 Y126.7 E205.584
G1 X120.8 Y128.3 E205.68
G0 F3272.7 X120.6 Y128.3
G0 X120.33 Y127.83
G0 X120.01 Y127.51
;TYPE:SKIN
G1 F2175 X102.99 Y127.51 E206.7012
G1 X102.99 Y127.49 E206.7024
G1 X120.01 Y127.49 E207.7236
G1 X120.01 Y127.51 E207.7248
G0 F3272.7 X120 Y127.5
G10
G0 X120.33 Y127.88
G0 X120.33 Y129.165
G0 X120.33 Y129.835
G0 X120.33 Y131.12
G0 X120.33 Y131.83
G0 X120.4 Y131.9
;TYPE:WALL-INNER
G11
G1 F3150 X102.6 Y131.9 E208.7928
G1 X102.6 Y131.1 E208.8408
G1 X120.4 Y131.1 E209.9088
G1 X120.4 Y131.9 E209.9568
G0 F3272.7 X120.8 Y132.3
;TYPE:WALL-OUTER
G1 F2550 X102.2 Y132.3 E211.0728
G1 X102.2 Y130.7 E211.1688
G1 X120.8 Y130.7 E212.2848
G1 X120.8 Y132.3 E212.3808
G0 F3272.7 X120.6 Y132.3
G0 X120.33 Y131.83
G0 X120.01 Y131.51
;TYPE:SKIN
G1 F2175 X102.99 Y131.51 E213.402
G1 X102.99 Y131.49 E213.4032
G1 X120.01 Y131.49 E214.4244
G1 X120.01 Y131.51 E214.4256
G0 F3272.7 X120 Y131.5
G10
G0 X120.33 Y131.88
G0 X120.33 Y133.165
G0 X120.33 Y133.835
G0 X120.33 Y135.12
G0 X120.33 Y135.83
G0 X120.4 Y135.9
;TYPE:WALL-INNER
G11
G1 F3150 X102.6 Y135.9 E215.4936
G1 X102.6 Y135.1 E215.5416
G1 X120.4 Y135.1 E216.6096
G1 X120.4 Y135.9 E216.6576
G0 F3272.7 X120.8 Y136.3
;TYPE:WALL-OUTER
G1 F2550 X102.2 Y136.3 E217.7736
G1 X102.2 Y134.7 E217.8696
G1 X120.8 Y134.7 E218.9856
G1 X120.8 Y136.3 E219.0816
G0 F3272.7 X120.6 Y136.3
G0 X120.33 Y135.83
G0 X120.01 Y135.51
;TYPE:SKIN
G1 F2175 X102.99 Y135.51 E220.1028
G1 X102.99 Y135.49 E220.104
G1 X120.01 Y135.49 E221.1252
G1 X120.01 Y135.51 E221.1264
G0 F3272.7 X120 Y135.5
G10
;MESH:NONMESH
G0 X120.33 Y135.12
G0 X120.33 Y133.835
G0 X121.653 Y133.153
G0 X121.653 Y91.847
G0 X120.33 Y90.165
G0 X120.33 Y88.88
G0 X120.33 Y88.83
G0 X120.4 Y88.9
;TIME_ELAPSED:76.360562
;LAYER:2
;MESH:96ef734e-311b-4d2f-a183-819c1bcb2288.stl
G0 F3600 X120.4 Y88.9 Z0.6
;TYPE:WALL-INNER
G11
G1 X102.6 Y88.9 E222.1944
G1 X102.6 Y88.1 E222.2424
G1 X120.4 Y88.1 E223.3104
G1 X120.4 Y88.9 E223.3584
G0 X120.8 Y89.3
;TYPE:WALL-OUTER
G1 F2400 X102.2 Y89.3 E224.4744
G1 X102.2 Y87.7 E224.5704
G1 X120.8 Y87.7 E225.6864
G1 X120.8 Y89.3 E225.7824
G0 F3600 X120.6 Y89.3
G0 X120.33 Y88.83
G0 X120.01 Y88.51
;TYPE:SKIN
G1 F1650 X102.99 Y88.51 E226.8036
G1 X102.99 Y88.49 E226.8048
G1 X120.01 Y88.49 E227.826
G1 X120.01 Y88.51 E227.8272
G0 F3600 X120 Y88.5
G10
G0 X120.33 Y88.88
G0 X120.33 Y90.165
G0 X120.33 Y91.835
G0 X120.33 Y93.12
G0 X120.33 Y93.83
G0 X120.4 Y93.9
;TYPE:WALL-INNER
G11
G1 X102.6 Y93.9 E228.8952
G1 X102.6 Y93.1 E228.9432
G1 X120.4 Y93.1 E230.0112
G1 X120.4 Y93.9 E230.0592
G0 X120.8 Y94.3
;TYPE:WALL-OUTER
G1 F2400 X102.2 Y94.3 E231.1752
G1 X102.2 Y92.7 E231.2712
G1 X120.8 Y92.7 E232.3872
G1 X120.8 Y94.3 E232.4832
G0 F3600 X120.6 Y94.3
G0 X120.33 Y93.83
G0 X120.01 Y93.51
;TYPE:SKIN
G1 F1650 X102.99 Y93.51 E233.5044
G1 X102.99 Y93.49 E233.5056
G1 X120.01 Y93.49 E234.5268
G1 X120.01 Y93.51 E234.528
G0 F3600 X120 Y93.5
G10
G0 X120.33 Y93.88
G0 X120.33 Y95.165
G0 X120.33 Y96.835
G0 X120.33 Y98.12
G0 X120.33 Y98.83
G0 X120.4 Y98.9
;TYPE:WALL-INNER
G11
G1 X102.6 Y98.9 E235.596
G1 X102.6 Y98.1 E235.644
G1 X120.4 Y98.1 E236.712
G1 X120.4 Y98.9 E236.76
G0 X120.8 Y99.3
;TYPE:WALL-OUTER
G1 F2400 X102.2 Y99.3 E237.876
G1 X102.2 Y97.7 E237.972
G1 X120.8 Y97.7 E239.088
G1 X120.8 Y99.3 E239.184
G0 F3600 X120.6 Y99.3
G0 X120.33 Y98.83
G0 X120.01 Y98.51
;TYPE:SKIN
G1 F1650 X102.99 Y98.51 E240.2052
G1 X102.99 Y98.49 E240.2064
G1 X120.01 Y98.49 E241.2276
G1 X120.01 Y98.51 E241.2288
G0 F3600 X120 Y98.5
G10
G0 X120.33 Y98.88
G0 X120.33 Y100.165
G0 X120.33 Y101.835
G0 X120.33 Y103.12
G0 X120.33 Y103.83
G0 X120.4 Y103.9
;TYPE:WALL-INNER
G11
G1 X102.6 Y103.9 E242.2968
G1 X102.6 Y103.1 E242.3448
G1 X120.4 Y103.1 E243.4128
