;FLAVOR:UltiGCode
;TIME:5101
;MATERIAL:12154
;MATERIAL2:0
;NOZZLE_DIAMETER:0.4
;Generated with Cura_SteamEngine 3.2.1
M82 ;absolute extrusion mode

;LAYER_COUNT:124
;LAYER:0
M107
G0 F4500 X108.599 Y95.023 Z0.3
;TYPE:SKIRT
G1 F1800 X102.919 Y104.633 E1.33957
G1 X112.058 Y104.606 E2.43626
G1 X112.847 Y104.644 E2.53104
G1 X113.512 Y104.744 E2.61174
G1 X113.782 Y104.059 E2.7001
G1 X114.206 Y103.25 E2.8097
G1 X119.171 Y95.011 E3.96403
G1 X117.788 Y95.014 E4.12999
G1 X117 Y94.976 E4.22466
G1 X116.269 Y94.866 E4.31336
G1 X111.776 Y95.047 E4.85296
G1 X111.378 Y95.053 E4.90073
G1 X108.599 Y95.023 E5.23423
G0 F4500 X108.372 Y94.621
G1 F1800 X102.216 Y105.035 E6.68592
G1 X112.059 Y105.006 E7.86708
G1 X112.827 Y105.044 E7.95936
G1 X113.587 Y105.161 E8.05163
G1 X113.785 Y105.213 E8.0762
G1 X113.995 Y104.583 E8.15589
G1 X114.311 Y103.882 E8.24816
G1 X114.549 Y103.457 E8.30661
G1 X119.881 Y94.61 E9.54616
G1 X117.788 Y94.614 E9.79732
G1 X117.019 Y94.576 E9.88971
G1 X116.296 Y94.464 E9.9775
G1 X111.76 Y94.647 E10.52227
G1 X111.382 Y94.653 E10.56763
G1 X108.372 Y94.621 E10.92885
G0 F4500 X108.145 Y94.219
G1 F1800 X101.514 Y105.437 E12.4926
G1 X112.06 Y105.406 E13.75813
G1 X112.807 Y105.444 E13.84789
G1 X113.546 Y105.561 E13.93767
G1 X114.071 Y105.703 E14.00293
G1 X114.239 Y105.085 E14.07978
G1 X114.511 Y104.388 E14.16957
G1 X114.891 Y103.663 E14.26779
G1 X120.589 Y94.208 E15.5925
G1 X117.787 Y94.214 E15.92874
G1 X117.04 Y94.176 E16.0185
G1 X116.326 Y94.062 E16.10526
G1 X111.744 Y94.247 E16.65555
G1 X111.387 Y94.253 E16.6984
G1 X108.145 Y94.219 E17.08746
G0 F4500 X107.919 Y93.816
G1 F1800 X100.811 Y105.839 E18.76349
G1 X112.061 Y105.806 E20.1135
G1 X112.787 Y105.844 E20.20074
G1 X113.504 Y105.961 E20.28792
G1 X114.203 Y106.157 E20.37503
G1 X114.374 Y106.226 E20.39716
G1 X114.513 Y105.563 E20.47845
G1 X114.74 Y104.873 E20.56561
G1 X115.041 Y104.212 E20.65277
G1 X115.234 Y103.869 E20.7
G1 X121.298 Y93.807 E22.10976
G1 X117.786 Y93.814 E22.5312
G1 X117.061 Y93.776 E22.61832
G1 X116.361 Y93.661 E22.70345
G1 X111.727 Y93.848 E23.25998
G1 X111.391 Y93.853 E23.30031
G1 X107.919 Y93.816 E23.71697
G0 F4500 X107.691 Y93.414
G1 F1800 X100.109 Y106.241 E25.505
G1 X112.063 Y106.206 E26.93949
G1 X112.766 Y106.244 E27.02397
G1 X113.46 Y106.361 E27.10843
G1 X114.136 Y106.557 E27.19289
G1 X114.71 Y106.795 E27.26746
G1 X114.713 Y106.711 E27.27754
G1 X114.817 Y106.015 E27.36199
G1 X114.999 Y105.335 E27.44646
G1 X115.257 Y104.68 E27.53094
G1 X115.577 Y104.076 E27.61296
G1 X122.008 Y93.405 E29.10805
G1 X117.785 Y93.414 E29.61481
G1 X117.082 Y93.376 E29.69929
G1 X116.393 Y93.259 E29.78316
G1 X111.711 Y93.448 E30.34545
G1 X111.395 Y93.453 E30.38338
G1 X107.691 Y93.414 E30.82788
G0 F4500 X107.465 Y93.011
G1 F1800 X99.406 Y106.644 E32.72831
G1 X112.064 Y106.606 E34.24727
G1 X112.744 Y106.644 E34.329
G1 X113.414 Y106.761 E34.41062
G1 X114.067 Y106.956 E34.4924
G1 X114.692 Y107.227 E34.57414
G1 X115.1 Y107.463 E34.63071
G1 X115.089 Y107.115 E34.67249
G1 X115.148 Y106.437 E34.75415
G1 X115.286 Y105.77 E34.83589
G1 X115.501 Y105.124 E34.91759
G1 X115.919 Y104.282 E35.03039
G1 X122.716 Y93.004 E36.61054
G1 X117.784 Y93.014 E37.20238
G1 X117.104 Y92.975 E37.28411
G1 X116.434 Y92.858 E37.36573
G1 X116.43 Y92.857 E37.36622
G1 X111.695 Y93.048 E37.93489
G1 X111.399 Y93.053 E37.97041
G1 X107.465 Y93.011 E38.44252
G0 F4500 X107.239 Y92.609
G1 F1800 X98.705 Y107.046 E40.455
G1 X112.065 Y107.006 E42.05821
G1 X112.721 Y107.044 E42.13706
G1 X113.367 Y107.161 E42.21584
G1 X113.995 Y107.356 E42.29475
G1 X114.594 Y107.626 E42.3736
G1 X115.155 Y107.967 E42.45238
G1 X115.596 Y108.313 E42.51964
G1 X115.556 Y108.137 E42.5413
G1 X115.491 Y107.483 E42.62017
G1 X115.506 Y106.827 E42.69891
G1 X115.6 Y106.176 E42.77784
G1 X115.773 Y105.543 E42.85658
G1 X116.021 Y104.934 E42.93549
G1 X116.262 Y104.489 E42.99622
G1 X123.425 Y92.602 E44.66162
G1 X117.783 Y92.614 E45.33866
G1 X117.128 Y92.575 E45.4174
G1 X116.481 Y92.457 E45.49632
G1 X116.475 Y92.455 E45.49708
G1 X111.679 Y92.649 E46.07307
G1 X111.404 Y92.653 E46.10608
G1 X107.239 Y92.609 E46.60591
G0 F4500 X107.011 Y92.206
G1 F1800 X98.001 Y107.448 E48.73061
G1 X112.066 Y107.406 E50.41842
G1 X112.697 Y107.444 E50.49428
G1 X113.318 Y107.562 E50.57013
G1 X113.92 Y107.756 E50.64603
G1 X114.492 Y108.026 E50.72193
G1 X115.025 Y108.365 E50.79773
G1 X115.511 Y108.768 E50.8735
G1 X115.943 Y109.23 E50.9494
G1 X116.313 Y109.743 E51.0253
G1 X116.615 Y110.298 E51.10112
G1 X116.845 Y110.887 E51.177
G1 X116.955 Y111.329 E51.23165
G1 X117.281 Y111.128 E51.27761
G1 X117.552 Y110.993 E51.31394
G1 X117.195 Y110.648 E51.37352
G1 X116.799 Y110.155 E51.4494
G1 X116.469 Y109.616 E51.52524
G1 X116.209 Y109.04 E51.60108
G1 X116.023 Y108.436 E51.67692
G1 X115.916 Y107.813 E51.75277
G1 X115.888 Y107.181 E51.82868
G1 X115.94 Y106.551 E51.90454
G1 X116.071 Y105.933 E51.98035
G1 X116.279 Y105.336 E52.05621
G1 X116.604 Y104.695 E52.14246
G1 X124.133 Y92.201 E53.89292
G1 X117.783 Y92.214 E54.65492
G1 X117.152 Y92.175 E54.73078
G1 X116.531 Y92.057 E54.80664
G1 X116.518 Y92.053 E54.80827
G1 X111.663 Y92.249 E55.39134
G1 X111.408 Y92.253 E55.42195
G1 X107.011 Y92.206 E55.94962
G0 F4500 X106.785 Y91.804
G1 F1800 X97.3 Y107.85 E58.18638
G1 X112.067 Y107.806 E59.95843
G1 X112.672 Y107.844 E60.03117
G1 X113.267 Y107.962 E60.10397
G1 X113.842 Y108.156 E60.17679
G1 X114.385 Y108.425 E60.2495
G1 X114.889 Y108.762 E60.32226
G1 X115.344 Y109.163 E60.39504
G1 X115.742 Y109.62 E60.46776
G1 X116.076 Y110.126 E60.54051
G1 X116.341 Y110.671 E60.61324
G1 X116.533 Y111.247 E60.68609
G1 X116.646 Y111.842 E60.75877
G1 X116.656 Y112.008 E60.77873
G1 X116.8 Y111.887 E60.8013
G1 X117.459 Y111.485 E60.89393
G1 X118.118 Y111.156 E60.98232
G1 X118.301 Y111.08 E61.0061
G1 X118.293 Y111.075 E61.00723
G1 X117.816 Y110.701 E61.07996
G1 X117.392 Y110.267 E61.15277
G1 X117.029 Y109.781 E61.22557
G1 X116.733 Y109.252 E61.29831
G1 X116.509 Y108.689 E61.37102
G1 X116.362 Y108.101 E61.44375
G1 X116.292 Y107.498 E61.5166
G1 X116.303 Y106.892 E61.58933
G1 X116.393 Y106.292 E61.66213
G1 X116.562 Y105.71 E61.73486
G1 X116.947 Y104.902 E61.84226
G1 X124.843 Y91.799 E63.67805
G1 X117.782 Y91.814 E64.52537
G1 X117.177 Y91.775 E64.59812
G1 X116.582 Y91.657 E64.67091
G1 X116.563 Y91.65 E64.67334
G1 X111.647 Y91.849 E65.26374
G1 X111.412 Y91.853 E65.29195
G1 X106.785 Y91.804 E65.84722
G0 F4500 X106.558 Y91.401
G1 F1800 X96.598 Y108.252 E68.19615
G1 X112.069 Y108.206 E70.05268
G1 X112.647 Y108.244 E70.12219
G1 X113.214 Y108.362 E70.19169
G1 X113.76 Y108.556 E70.26122
G1 X114.273 Y108.824 E70.33067
G1 X114.746 Y109.159 E70.40023
G1 X115.167 Y109.557 E70.46975
G1 X115.53 Y110.009 E70.53931
G1 X115.827 Y110.506 E70.60879
G1 X116.052 Y111.039 E70.67822
G1 X116.203 Y111.599 E70.74782
G1 X116.275 Y112.174 E70.81736
G1 X116.267 Y112.753 E70.88684
G1 X116.231 Y112.985 E70.91502
G1 X116.253 Y112.954 E70.91958
G1 X116.649 Y112.53 E70.9892
G1 X117.099 Y112.165 E71.05873
G1 X117.638 Y111.843 E71.13407
G1 X118.297 Y111.514 E71.22246
G1 X118.832 Y111.292 E71.29197
G1 X119.319 Y111.164 E71.35239
G1 X118.926 Y110.99 E71.40397
G1 X118.434 Y110.685 E71.47343
G1 X117.988 Y110.315 E71.54297
G1 X117.598 Y109.887 E71.61245
G1 X117.269 Y109.41 E71.68199
G1 X117.01 Y108.892 E71.75149
G1 X116.825 Y108.343 E71.82101
G1 X116.717 Y107.774 E71.8905
G1 X116.688 Y107.195 E71.96007
G1 X116.739 Y106.618 E72.02958
G1 X116.869 Y106.054 E72.09904
G1 X117.075 Y105.512 E72.16862
G1 X117.29 Y105.108 E72.22353
G1 X125.552 Y91.398 E74.14438
G1 X117.781 Y91.414 E75.0769
G1 X117.203 Y91.375 E75.14642
G1 X116.636 Y91.257 E75.21591
G1 X116.613 Y91.249 E75.21884
G1 X111.631 Y91.45 E75.81716
G1 X111.416 Y91.453 E75.84296
G1 X106.558 Y91.401 E76.42596
G0 F4500 X106.331 Y90.999
G1 F1800 X95.895 Y108.654 E78.88701
G1 X112.07 Y108.606 E80.82802
G1 X112.619 Y108.644 E80.89406
G1 X113.158 Y108.762 E80.96027
G1 X113.673 Y108.956 E81.02631
G1 X114.156 Y109.222 E81.09247
G1 X114.594 Y109.556 E81.15857
G1 X114.98 Y109.949 E81.22468
G1 X115.305 Y110.394 E81.2908
G1 X115.562 Y110.882 E81.35699
G1 X115.746 Y111.401 E81.42306
G1 X115.853 Y111.942 E81.48924
G1 X115.88 Y112.492 E81.55532
G1 X115.828 Y113.041 E81.6215
G1 X115.613 Y113.808 E81.71708
G1 X115.121 Y115.048 E81.87717
G1 X114.919 Y116.077 E82.003
G1 X114.9 Y116.514 E82.05549
G1 X115.001 Y117.492 E82.17348
G1 X115.249 Y118.275 E82.27204
G1 X115.657 Y119.011 E82.37302
G1 X116.266 Y119.726 E82.48573
G1 X116.602 Y120.021 E82.53938
G1 X117.37 Y120.499 E82.64793
G1 X118.151 Y120.791 E82.74799
G1 X119.322 Y120.978 E82.89029
G1 X119.859 Y121.104 E82.95648
G1 X120.371 Y121.306 E83.02253
G1 X120.849 Y121.581 E83.0887
G1 X121.282 Y121.922 E83.15484
G1 X121.661 Y122.321 E83.22088
G1 X121.979 Y122.772 E83.2871
G1 X122.228 Y123.263 E83.35316
G1 X122.403 Y123.786 E83.41934
G1 X122.501 Y124.328 E83.48544
G1 X122.519 Y124.879 E83.55159
G1 X122.458 Y125.426 E83.61764
G1 X122.318 Y125.959 E83.68377
G1 X122.009 Y126.636 E83.77307
G1 X114.514 Y139.562 E85.56609
G1 X134.015 Y139.123 E87.9068
G1 X143.926 Y122.829 E90.19538
G1 X135.525 Y122.843 E91.2035
G1 X134.976 Y122.804 E91.26955
G1 X134.437 Y122.686 E91.33576
G1 X134.4 Y122.672 E91.34051
G1 X129.431 Y122.852 E91.93718
G1 X128.88 Y122.831 E92.00334
G1 X128.338 Y122.732 E92.06946
G1 X127.816 Y122.555 E92.1356
G1 X127.325 Y122.305 E92.20172
G1 X126.876 Y121.986 E92.26782
G1 X126.477 Y121.606 E92.33394
G1 X126.138 Y121.172 E92.40002
G1 X125.865 Y120.693 E92.46618
G1 X125.664 Y120.18 E92.5323
G1 X125.539 Y119.643 E92.59846
G1 X125.493 Y119.094 E92.66457
G1 X125.527 Y118.544 E92.7307
G1 X125.635 Y118.025 E92.79431
G1 X125.787 Y117.485 E92.86163
G1 X125.892 Y116.596 E92.96905
G1 X125.787 Y115.516 E93.09926
G1 X125.493 Y114.521 E93.22376
G1 X125.065 Y113.675 E93.33754
G1 X124.423 Y112.832 E93.46469
G1 X123.717 Y112.19 E93.5792
G1 X122.941 Y111.698 E93.68946
G1 X122.028 Y111.322 E93.80795
G1 X120.889 Y111.086 E93.94753
G1 X120.615 Y111.066 E93.9805
G1 X120.07 Y110.987 E94.04658
G1 X119.542 Y110.83 E94.11269
G1 X119.042 Y110.598 E94.17883
G1 X118.581 Y110.296 E94.24496
G1 X118.168 Y109.931 E94.3111
G1 X117.813 Y109.51 E94.37719
G1 X117.522 Y109.042 E94.44332
G1 X117.302 Y108.537 E94.50942
G1 X117.158 Y108.005 E94.57556
G1 X117.091 Y107.458 E94.64169
G1 X117.105 Y106.907 E94.70783
G1 X117.198 Y106.364 E94.77394
G1 X117.369 Y105.84 E94.84008
G1 X117.632 Y105.315 E94.91054
G1 X126.261 Y90.996 E96.91671
G1 X117.78 Y91.014 E97.93443
G1 X117.23 Y90.975 E98.0006
G1 X116.692 Y90.857 E98.06669
G1 X116.663 Y90.846 E98.07042
G1 X111.614 Y91.05 E98.67679
G1 X111.421 Y91.053 E98.69995
G1 X106.331 Y90.999 E99.31079
G0 F4500 X106.104 Y90.596
G1 F1800 X95.193 Y109.056 E101.884
G1 X112.071 Y109.006 E103.90937
G1 X112.591 Y109.044 E103.97194
G1 X113.098 Y109.162 E104.0344
G1 X113.582 Y109.355 E104.09693
G1 X114.031 Y109.621 E104.15955
G1 X114.434 Y109.951 E104.22206
G1 X114.781 Y110.34 E104.28461
G1 X115.065 Y110.777 E104.34715
G1 X115.279 Y111.252 E104.40967
G1 X115.418 Y111.754 E104.47218
G1 X115.478 Y112.272 E104.53475
G1 X115.459 Y112.793 E104.59732
G1 X115.36 Y113.304 E104.65978
G1 X115.241 Y113.66 E104.70482
G1 X114.737 Y114.929 E104.86867
G1 X114.522 Y116.028 E105.00305
G1 X114.5 Y116.531 E105.06347
G1 X114.607 Y117.572 E105.18905
G1 X114.881 Y118.436 E105.29781
G1 X115.326 Y119.24 E105.40809
G1 X115.982 Y120.009 E105.52938
G1 X116.362 Y120.342 E105.59001
G1 X117.189 Y120.858 E105.70699
G1 X118.052 Y121.18 E105.81752
G1 X119.259 Y121.373 E105.9642
G1 X119.766 Y121.494 E106.02675
G1 X120.248 Y121.692 E106.08928
G1 X120.695 Y121.961 E106.15188
G1 X121.095 Y122.295 E106.21442
G1 X121.439 Y122.686 E106.27691
G1 X121.719 Y123.125 E106.33939
G1 X121.929 Y123.602 E106.40193
G1 X122.064 Y124.106 E106.46455
G1 X122.12 Y124.624 E106.52707
G1 X122.097 Y125.144 E106.58953
G1 X121.994 Y125.655 E106.65208
G1 X121.814 Y126.144 E106.71461
G1 X121.663 Y126.436 E106.75406
G1 X113.81 Y139.978 E108.63257
G1 X134.243 Y139.518 E111.08515
G1 X144.638 Y122.428 E113.48552
G1 X135.525 Y122.443 E114.57908
G1 X135.005 Y122.404 E114.64166
G1 X134.497 Y122.286 E114.70424
G1 X134.459 Y122.269 E114.70924
G1 X129.416 Y122.452 E115.3148
G1 X128.895 Y122.431 E115.37737
G1 X128.384 Y122.33 E115.43987
G1 X127.894 Y122.153 E115.50239
G1 X127.437 Y121.903 E115.5649
G1 X127.023 Y121.585 E115.62755
G1 X126.663 Y121.209 E115.69001
G1 X126.365 Y120.782 E115.7525
G1 X126.135 Y120.314 E115.81507
G1 X125.98 Y119.816 E115.87766
G1 X125.902 Y119.301 E115.94016
G1 X125.904 Y118.78 E116.00269
G1 X126.02 Y118.133 E116.08156
G1 X126.18 Y117.564 E116.15249
G1 X126.294 Y116.6 E116.26898
G1 X126.181 Y115.442 E116.4086
G1 X125.866 Y114.373 E116.54233
G1 X125.404 Y113.46 E116.66512
G1 X124.717 Y112.56 E116.80099
G1 X123.964 Y111.874 E116.92322
G1 X123.12 Y111.338 E117.0432
G1 X122.146 Y110.938 E117.16955
G1 X120.946 Y110.689 E117.31662
G1 X120.644 Y110.667 E117.35296
G1 X120.128 Y110.59 E117.41556
G1 X119.631 Y110.435 E117.47804
G1 X119.163 Y110.206 E117.54056
G1 X118.735 Y109.908 E117.60314
G1 X118.358 Y109.549 E117.66561
G1 X118.04 Y109.135 E117.72826
G1 X117.79 Y108.679 E117.79066
G1 X117.612 Y108.189 E117.85322
G1 X117.511 Y107.677 E117.91584
G1 X117.489 Y107.157 E117.9783
G1 X117.547 Y106.639 E118.04085
G1 X117.684 Y106.136 E118.10341
G1 X117.975 Y105.521 E118.18505
G1 X126.97 Y90.595 E120.27627
G1 X117.779 Y90.614 E121.3792
G1 X117.259 Y90.575 E121.44177
G1 X116.752 Y90.457 E121.50424
G1 X116.721 Y90.443 E121.50832
G1 X111.598 Y90.65 E122.12358
G1 X111.425 Y90.653 E122.14435
G1 X106.104 Y90.596 E122.7829
G0 F4500 X105.878 Y90.194
G1 F1800 X94.491 Y109.458 E125.46824
G1 X112.072 Y109.406 E127.57797
G1 X112.56 Y109.445 E127.63671
G1 X113.035 Y109.562 E127.69542
G1 X113.485 Y109.755 E127.75417
G1 X113.898 Y110.019 E127.81299
G1 X114.262 Y110.346 E127.87171
G1 X114.568 Y110.728 E127.93044
G1 X114.807 Y111.154 E127.98906
G1 X114.975 Y111.614 E128.04783
G1 X115.065 Y112.096 E128.10667
G1 X115.076 Y112.585 E128.16536
G1 X115.007 Y113.07 E128.22415
G1 X114.869 Y113.512 E128.27971
G1 X114.351 Y114.816 E128.44809
G1 X114.123 Y115.982 E128.59066
G1 X114.099 Y116.541 E128.6578
G1 X114.213 Y117.652 E128.79182
G1 X114.512 Y118.595 E128.91053
G1 X114.996 Y119.469 E129.03042
G1 X115.697 Y120.292 E129.16015
G1 X116.12 Y120.663 E129.22766
G1 X117.014 Y121.22 E129.35406
G1 X117.948 Y121.568 E129.47367
G1 X119.196 Y121.768 E129.62534
G1 X119.671 Y121.884 E129.68402
G1 X120.121 Y122.076 E129.74273
G1 X120.534 Y122.339 E129.80148
G1 X120.899 Y122.666 E129.86029
G1 X121.206 Y123.047 E129.919
G1 X121.446 Y123.474 E129.97778
G1 X121.614 Y123.933 E130.03644
G1 X121.705 Y124.414 E130.09518
G1 X121.717 Y124.904 E130.154
G1 X121.649 Y125.388 E130.21265
G1 X121.503 Y125.856 E130.27148
G1 X121.317 Y126.235 E130.32214
G1 X113.107 Y140.395 E132.28629
G1 X134.471 Y139.913 E134.85063
G1 X145.351 Y122.027 E137.36285
G1 X135.524 Y122.043 E138.54209
G1 X135.036 Y122.004 E138.60084
G1 X134.561 Y121.886 E138.65957
G1 X134.519 Y121.867 E138.6651
G1 X129.402 Y122.052 E139.27955
G1 X128.913 Y122.03 E139.33828
G1 X128.434 Y121.928 E139.39705
G1 X127.978 Y121.75 E139.45579
G1 X127.557 Y121.501 E139.51449
G1 X127.182 Y121.186 E139.57326
G1 X126.864 Y120.814 E139.63199
G1 X126.61 Y120.395 E139.69078
G1 X126.427 Y119.941 E139.74952
G1 X126.321 Y119.463 E139.80828
G1 X126.294 Y118.975 E139.86693
G1 X126.347 Y118.488 E139.92571
G1 X126.405 Y118.241 E139.95616
G1 X126.575 Y117.637 E140.03145
G1 X126.696 Y116.608 E140.15578
G1 X126.576 Y115.364 E140.30576
G1 X126.24 Y114.227 E140.44803
G1 X125.743 Y113.245 E140.5801
G1 X125.014 Y112.29 E140.72428
G1 X124.205 Y111.553 E140.8556
G1 X123.307 Y110.983 E140.98324
G1 X122.263 Y110.553 E141.11873
G1 X121.003 Y110.292 E141.27314
G1 X120.672 Y110.268 E141.31296
G1 X120.189 Y110.194 E141.3716
G1 X119.724 Y110.041 E141.43034
G1 X119.289 Y109.815 E141.48916
G1 X118.898 Y109.522 E141.5478
G1 X118.559 Y109.168 E141.60661
G1 X118.282 Y108.764 E141.66539
G1 X118.075 Y108.321 E141.72407
G1 X117.942 Y107.85 E141.7828
G1 X117.888 Y107.363 E141.8416
G1 X117.914 Y106.875 E141.90024
G1 X118.019 Y106.396 E141.95909
G1 X118.317 Y105.728 E142.04686
